NCOLS 65
NROWS 65
XLLCORNER 0
YLLCORNER 0
CELLSIZE 1
NODATA_VALUE -9999
15.000 14.989 14.977 14.963 14.947 14.929 14.909 14.886 14.862 14.835 14.806 14.775 14.742 14.707 14.669 14.631 14.591 14.550 14.508 14.466 14.425 14.384 14.344 14.307 14.271 14.238 14.209 14.183 14.162 14.145 14.132 14.124 14.122 14.124 14.132 14.145 14.162 14.183 14.209 14.238 14.271 14.307 14.344 14.384 14.425 14.466 14.508 14.550 14.591 14.631 14.669 14.707 14.742 14.775 14.806 14.835 14.862 14.886 14.909 14.929 14.947 14.963 14.977 14.989 15.000
14.989 14.976 14.962 14.945 14.926 14.904 14.881 14.854 14.825 14.794 14.759 14.722 14.683 14.641 14.597 14.551 14.504 14.455 14.406 14.356 14.307 14.258 14.211 14.167 14.124 14.086 14.051 14.020 13.995 13.974 13.959 13.950 13.947 13.950 13.959 13.974 13.995 14.020 14.051 14.086 14.124 14.167 14.211 14.258 14.307 14.356 14.406 14.455 14.504 14.551 14.597 14.641 14.683 14.722 14.759 14.794 14.825 14.854 14.881 14.904 14.926 14.945 14.962 14.976 14.989
14.977 14.962 14.944 14.924 14.902 14.877 14.849 14.818 14.783 14.746 14.706 14.662 14.615 14.566 14.514 14.460 14.404 14.346 14.288 14.230 14.171 14.114 14.059 14.006 13.956 13.911 13.870 13.834 13.803 13.779 13.762 13.751 13.748 13.751 13.762 13.779 13.803 13.834 13.870 13.911 13.956 14.006 14.059 14.114 14.171 14.230 14.288 14.346 14.404 14.460 14.514 14.566 14.615 14.662 14.706 14.746 14.783 14.818 14.849 14.877 14.902 14.924 14.944 14.962 14.977
14.963 14.945 14.924 14.901 14.875 14.845 14.812 14.776 14.736 14.692 14.644 14.593 14.539 14.481 14.420 14.356 14.290 14.223 14.154 14.086 14.017 13.950 13.886 13.824 13.765 13.712 13.663 13.621 13.585 13.557 13.537 13.524 13.520 13.524 13.537 13.557 13.585 13.621 13.663 13.712 13.765 13.824 13.886 13.950 14.017 14.086 14.154 14.223 14.290 14.356 14.420 14.481 14.539 14.593 14.644 14.692 14.736 14.776 14.812 14.845 14.875 14.901 14.924 14.945 14.963
14.947 14.926 14.902 14.875 14.844 14.810 14.771 14.729 14.682 14.631 14.575 14.515 14.452 14.384 14.313 14.238 14.162 14.083 14.003 13.923 13.843 13.765 13.689 13.617 13.549 13.486 13.430 13.381 13.339 13.306 13.282 13.268 13.263 13.268 13.282 13.306 13.339 13.381 13.430 13.486 13.549 13.617 13.689 13.765 13.843 13.923 14.003 14.083 14.162 14.238 14.313 14.384 14.452 14.515 14.575 14.631 14.682 14.729 14.771 14.810 14.844 14.875 14.902 14.926 14.947
14.929 14.904 14.877 14.845 14.810 14.770 14.725 14.676 14.621 14.562 14.498 14.428 14.354 14.275 14.193 14.107 14.017 13.926 13.834 13.740 13.648 13.557 13.469 13.385 13.306 13.233 13.168 13.111 13.063 13.024 12.997 12.980 12.974 12.980 12.997 13.024 13.063 13.111 13.168 13.233 13.306 13.385 13.469 13.557 13.648 13.740 13.834 13.926 14.017 14.107 14.193 14.275 14.354 14.428 14.498 14.562 14.621 14.676 14.725 14.770 14.810 14.845 14.877 14.904 14.929
14.909 14.881 14.849 14.812 14.771 14.725 14.674 14.617 14.554 14.485 14.411 14.331 14.245 14.154 14.059 13.959 13.857 13.751 13.644 13.537 13.430 13.325 13.223 13.126 13.035 12.951 12.876 12.810 12.754 12.710 12.678 12.658 12.652 12.658 12.678 12.710 12.754 12.810 12.876 12.951 13.035 13.126 13.223 13.325 13.430 13.537 13.644 13.751 13.857 13.959 14.059 14.154 14.245 14.331 14.411 14.485 14.554 14.617 14.674 14.725 14.771 14.812 14.849 14.881 14.909
14.886 14.854 14.818 14.776 14.729 14.676 14.617 14.551 14.479 14.400 14.315 14.223 14.124 14.020 13.911 13.796 13.678 13.557 13.434 13.311 13.188 13.068 12.951 12.840 12.735 12.639 12.552 12.476 12.412 12.361 12.325 12.302 12.295 12.302 12.325 12.361 12.412 12.476 12.552 12.639 12.735 12.840 12.951 13.068 13.188 13.311 13.434 13.557 13.678 13.796 13.911 14.020 14.124 14.223 14.315 14.400 14.479 14.551 14.617 14.676 14.729 14.776 14.818 14.854 14.886
14.862 14.825 14.783 14.736 14.682 14.621 14.554 14.479 14.397 14.307 14.209 14.104 13.992 13.873 13.748 13.617 13.482 13.344 13.203 13.063 12.923 12.785 12.652 12.524 12.405 12.295 12.196 12.109 12.036 11.978 11.936 11.910 11.902 11.910 11.936 11.978 12.036 12.109 12.196 12.295 12.405 12.524 12.652 12.785 12.923 13.063 13.203 13.344 13.482 13.617 13.748 13.873 13.992 14.104 14.209 14.307 14.397 14.479 14.554 14.621 14.682 14.736 14.783 14.825 14.862
14.835 14.794 14.746 14.692 14.631 14.562 14.485 14.400 14.307 14.204 14.094 13.974 13.847 13.712 13.569 13.421 13.268 13.111 12.951 12.791 12.632 12.476 12.325 12.180 12.044 11.919 11.806 11.708 11.625 11.559 11.511 11.482 11.473 11.482 11.511 11.559 11.625 11.708 11.806 11.919 12.044 12.180 12.325 12.476 12.632 12.791 12.951 13.111 13.268 13.421 13.569 13.712 13.847 13.974 14.094 14.204 14.307 14.400 14.485 14.562 14.631 14.692 14.746 14.794 14.835
14.806 14.759 14.706 14.644 14.575 14.498 14.411 14.315 14.209 14.094 13.968 13.834 13.689 13.537 13.376 13.209 13.035 12.858 12.678 12.497 12.317 12.141 11.970 11.806 11.653 11.511 11.384 11.273 11.179 11.105 11.051 11.018 11.007 11.018 11.051 11.105 11.179 11.273 11.384 11.511 11.653 11.806 11.970 12.141 12.317 12.497 12.678 12.858 13.035 13.209 13.376 13.537 13.689 13.834 13.968 14.094 14.209 14.315 14.411 14.498 14.575 14.644 14.706 14.759 14.806
14.775 14.722 14.662 14.593 14.515 14.428 14.331 14.223 14.104 13.974 13.834 13.682 13.520 13.348 13.168 12.980 12.785 12.586 12.383 12.180 11.978 11.780 11.587 11.404 11.231 11.073 10.929 10.804 10.699 10.616 10.555 10.518 10.506 10.518 10.555 10.616 10.699 10.804 10.929 11.073 11.231 11.404 11.587 11.780 11.978 12.180 12.383 12.586 12.785 12.980 13.168 13.348 13.520 13.682 13.834 13.974 14.104 14.223 14.331 14.428 14.515 14.593 14.662 14.722 14.775
14.742 14.683 14.615 14.539 14.452 14.354 14.245 14.124 13.992 13.847 13.689 13.520 13.339 13.147 12.946 12.735 12.518 12.295 12.069 11.841 11.616 11.394 11.179 10.974 10.781 10.604 10.444 10.304 10.186 10.093 10.025 9.984 9.970 9.984 10.025 10.093 10.186 10.304 10.444 10.604 10.781 10.974 11.179 11.394 11.616 11.841 12.069 12.295 12.518 12.735 12.946 13.147 13.339 13.520 13.689 13.847 13.992 14.124 14.245 14.354 14.452 14.539 14.615 14.683 14.742
14.707 14.641 14.566 14.481 14.384 14.275 14.154 14.020 13.873 13.712 13.537 13.348 13.147 12.934 12.710 12.476 12.234 11.986 11.735 11.482 11.231 10.985 10.746 10.518 10.304 10.107 9.929 9.773 9.643 9.539 9.464 9.418 9.403 9.418 9.464 9.539 9.643 9.773 9.929 10.107 10.304 10.518 10.746 10.985 11.231 11.482 11.735 11.986 12.234 12.476 12.710 12.934 13.147 13.348 13.537 13.712 13.873 14.020 14.154 14.275 14.384 14.481 14.566 14.641 14.707
14.669 14.597 14.514 14.420 14.313 14.193 14.059 13.911 13.748 13.569 13.376 13.168 12.946 12.710 12.462 12.203 11.936 11.662 11.384 11.105 10.827 10.555 10.291 10.039 9.802 9.584 9.387 9.215 9.071 8.956 8.873 8.822 8.805 8.822 8.873 8.956 9.071 9.215 9.387 9.584 9.802 10.039 10.291 10.555 10.827 11.105 11.384 11.662 11.936 12.203 12.462 12.710 12.946 13.168 13.376 13.569 13.748 13.911 14.059 14.193 14.313 14.420 14.514 14.597 14.669
14.631 14.551 14.460 14.356 14.238 14.107 13.959 13.796 13.617 13.421 13.209 12.980 12.735 12.476 12.203 11.919 11.625 11.324 11.018 10.711 10.406 10.107 9.816 9.539 9.279 9.038 8.822 8.634 8.475 8.349 8.257 8.201 8.183 8.201 8.257 8.349 8.475 8.634 8.822 9.038 9.279 9.539 9.816 10.107 10.406 10.711 11.018 11.324 11.625 11.919 12.203 12.476 12.735 12.980 13.209 13.421 13.617 13.796 13.959 14.107 14.238 14.356 14.460 14.551 14.631
14.591 14.504 14.404 14.290 14.162 14.017 13.857 13.678 13.482 13.268 13.035 12.785 12.518 12.234 11.936 11.625 11.303 10.974 10.640 10.304 9.970 9.643 9.325 9.022 8.737 8.475 8.238 8.032 7.858 7.720 7.620 7.559 7.539 7.559 7.620 7.720 7.858 8.032 8.238 8.475 8.737 9.022 9.325 9.643 9.970 10.304 10.640 10.974 11.303 11.625 11.936 12.234 12.518 12.785 13.035 13.268 13.482 13.678 13.857 14.017 14.162 14.290 14.404 14.504 14.591
14.550 14.455 14.346 14.223 14.083 13.926 13.751 13.557 13.344 13.111 12.858 12.586 12.295 11.986 11.662 11.324 10.974 10.616 10.252 9.887 9.524 9.168 8.822 8.493 8.183 7.897 7.640 7.415 7.227 7.076 6.967 6.901 6.879 6.901 6.967 7.076 7.227 7.415 7.640 7.897 8.183 8.493 8.822 9.168 9.524 9.887 10.252 10.616 10.974 11.324 11.662 11.986 12.295 12.586 12.858 13.111 13.344 13.557 13.751 13.926 14.083 14.223 14.346 14.455 14.550
14.508 14.406 14.288 14.154 14.003 13.834 13.644 13.434 13.203 12.951 12.678 12.383 12.069 11.735 11.384 11.018 10.640 10.252 9.859 9.464 9.071 8.686 8.312 7.955 7.620 7.311 7.033 6.790 6.586 6.423 6.305 6.234 6.210 6.234 6.305 6.423 6.586 6.790 7.033 7.311 7.620 7.955 8.312 8.686 9.071 9.464 9.859 10.252 10.640 11.018 11.384 11.735 12.069 12.383 12.678 12.951 13.203 13.434 13.644 13.834 14.003 14.154 14.288 14.406 14.508
14.466 14.356 14.230 14.086 13.923 13.740 13.537 13.311 13.063 12.791 12.497 12.180 11.841 11.482 11.105 10.711 10.304 9.887 9.464 9.038 8.616 8.201 7.799 7.415 7.055 6.722 6.423 6.162 5.942 5.767 5.640 5.563 5.537 5.563 5.640 5.767 5.942 6.162 6.423 6.722 7.055 7.415 7.799 8.201 8.616 9.038 9.464 9.887 10.304 10.711 11.105 11.482 11.841 12.180 12.497 12.791 13.063 13.311 13.537 13.740 13.923 14.086 14.230 14.356 14.466
14.425 14.307 14.171 14.017 13.843 13.648 13.430 13.188 12.923 12.632 12.317 11.978 11.616 11.231 10.827 10.406 9.970 9.524 9.071 8.616 8.164 7.720 7.290 6.879 6.493 6.137 5.817 5.537 5.302 5.115 4.979 4.897 4.869 4.897 4.979 5.115 5.302 5.537 5.817 6.137 6.493 6.879 7.290 7.720 8.164 8.616 9.071 9.524 9.970 10.406 10.827 11.231 11.616 11.978 12.317 12.632 12.923 13.188 13.430 13.648 13.843 14.017 14.171 14.307 14.425
14.384 14.258 14.114 13.950 13.765 13.557 13.325 13.068 12.785 12.476 12.141 11.780 11.394 10.985 10.555 10.107 9.643 9.168 8.686 8.201 7.720 7.248 6.790 6.353 5.942 5.563 5.222 4.924 4.674 4.475 4.330 4.243 4.213 4.243 4.330 4.475 4.674 4.924 5.222 5.563 5.942 6.353 6.790 7.248 7.720 8.201 8.686 9.168 9.643 10.107 10.555 10.985 11.394 11.780 12.141 12.476 12.785 13.068 13.325 13.557 13.765 13.950 14.114 14.258 14.384
14.344 14.211 14.059 13.886 13.689 13.469 13.223 12.951 12.652 12.325 11.970 11.587 11.179 10.746 10.291 9.816 9.325 8.822 8.312 7.799 7.290 6.790 6.305 5.842 5.407 5.007 4.646 4.330 4.065 3.855 3.702 3.609 3.578 3.609 3.702 3.855 4.065 4.330 4.646 5.007 5.407 5.842 6.305 6.790 7.290 7.799 8.312 8.822 9.325 9.816 10.291 10.746 11.179 11.587 11.970 12.325 12.652 12.951 13.223 13.469 13.689 13.886 14.059 14.211 14.344
14.307 14.167 14.006 13.824 13.617 13.385 13.126 12.840 12.524 12.180 11.806 11.404 10.974 10.518 10.039 9.539 9.022 8.493 7.955 7.415 6.879 6.353 5.842 5.355 4.897 4.475 4.095 3.763 3.484 3.262 3.101 3.003 2.970 3.003 3.101 3.262 3.484 3.763 4.095 4.475 4.897 5.355 5.842 6.353 6.879 7.415 7.955 8.493 9.022 9.539 10.039 10.518 10.974 11.404 11.806 12.180 12.524 12.840 13.126 13.385 13.617 13.824 14.006 14.167 14.307
14.271 14.124 13.956 13.765 13.549 13.306 13.035 12.735 12.405 12.044 11.653 11.231 10.781 10.304 9.802 9.279 8.737 8.183 7.620 7.055 6.493 5.942 5.407 4.897 4.417 3.975 3.578 3.230 2.938 2.705 2.537 2.434 2.400 2.434 2.537 2.705 2.938 3.230 3.578 3.975 4.417 4.897 5.407 5.942 6.493 7.055 7.620 8.183 8.737 9.279 9.802 10.304 10.781 11.231 11.653 12.044 12.405 12.735 13.035 13.306 13.549 13.765 13.956 14.124 14.271
14.238 14.086 13.911 13.712 13.486 13.233 12.951 12.639 12.295 11.919 11.511 11.073 10.604 10.107 9.584 9.038 8.475 7.897 7.311 6.722 6.137 5.563 5.007 4.475 3.975 3.515 3.101 2.739 2.434 2.192 2.017 1.910 1.874 1.910 2.017 2.192 2.434 2.739 3.101 3.515 3.975 4.475 5.007 5.563 6.137 6.722 7.311 7.897 8.475 9.038 9.584 10.107 10.604 11.073 11.511 11.919 12.295 12.639 12.951 13.233 13.486 13.712 13.911 14.086 14.238
14.209 14.051 13.870 13.663 13.430 13.168 12.876 12.552 12.196 11.806 11.384 10.929 10.444 9.929 9.387 8.822 8.238 7.640 7.033 6.423 5.817 5.222 4.646 4.095 3.578 3.101 2.672 2.296 1.981 1.730 1.548 1.438 1.401 1.438 1.548 1.730 1.981 2.296 2.672 3.101 3.578 4.095 4.646 5.222 5.817 6.423 7.033 7.640 8.238 8.822 9.387 9.929 10.444 10.929 11.384 11.806 12.196 12.552 12.876 13.168 13.430 13.663 13.870 14.051 14.209
14.183 14.020 13.834 13.621 13.381 13.111 12.810 12.476 12.109 11.708 11.273 10.804 10.304 9.773 9.215 8.634 8.032 7.415 6.790 6.162 5.537 4.924 4.330 3.763 3.230 2.739 2.296 1.910 1.585 1.327 1.139 1.025 0.987 1.025 1.139 1.327 1.585 1.910 2.296 2.739 3.230 3.763 4.330 4.924 5.537 6.162 6.790 7.415 8.032 8.634 9.215 9.773 10.304 10.804 11.273 11.708 12.109 12.476 12.810 13.111 13.381 13.621 13.834 14.020 14.183
14.162 13.995 13.803 13.585 13.339 13.063 12.754 12.412 12.036 11.625 11.179 10.699 10.186 9.643 9.071 8.475 7.858 7.227 6.586 5.942 5.302 4.674 4.065 3.484 2.938 2.434 1.981 1.585 1.252 0.987 0.795 0.679 0.640 0.679 0.795 0.987 1.252 1.585 1.981 2.434 2.938 3.484 4.065 4.674 5.302 5.942 6.586 7.227 7.858 8.475 9.071 9.643 10.186 10.699 11.179 11.625 12.036 12.412 12.754 13.063 13.339 13.585 13.803 13.995 14.162
14.145 13.974 13.779 13.557 13.306 13.024 12.710 12.361 11.978 11.559 11.105 10.616 10.093 9.539 8.956 8.349 7.720 7.076 6.423 5.767 5.115 4.475 3.855 3.262 2.705 2.192 1.730 1.327 0.987 0.718 0.522 0.403 0.363 0.403 0.522 0.718 0.987 1.327 1.730 2.192 2.705 3.262 3.855 4.475 5.115 5.767 6.423 7.076 7.720 8.349 8.956 9.539 10.093 10.616 11.105 11.559 11.978 12.361 12.710 13.024 13.306 13.557 13.779 13.974 14.145
14.132 13.959 13.762 13.537 13.282 12.997 12.678 12.325 11.936 11.511 11.051 10.555 10.025 9.464 8.873 8.257 7.620 6.967 6.305 5.640 4.979 4.330 3.702 3.101 2.537 2.017 1.548 1.139 0.795 0.522 0.323 0.203 0.163 0.203 0.323 0.522 0.795 1.139 1.548 2.017 2.537 3.101 3.702 4.330 4.979 5.640 6.305 6.967 7.620 8.257 8.873 9.464 10.025 10.555 11.051 11.511 11.936 12.325 12.678 12.997 13.282 13.537 13.762 13.959 14.132
14.124 13.950 13.751 13.524 13.268 12.980 12.658 12.302 11.910 11.482 11.018 10.518 9.984 9.418 8.822 8.201 7.559 6.901 6.234 5.563 4.897 4.243 3.609 3.003 2.434 1.910 1.438 1.025 0.679 0.403 0.203 0.081 0.041 0.081 0.203 0.403 0.679 1.025 1.438 1.910 2.434 3.003 3.609 4.243 4.897 5.563 6.234 6.901 7.559 8.201 8.822 9.418 9.984 10.518 11.018 11.482 11.910 12.302 12.658 12.980 13.268 13.524 13.751 13.950 14.124
14.122 13.947 13.748 13.520 13.263 12.974 12.652 12.295 11.902 11.473 11.007 10.506 9.970 9.403 8.805 8.183 7.539 6.879 6.210 5.537 4.869 4.213 3.578 2.970 2.400 1.874 1.401 0.987 0.640 0.363 0.163 0.041 0.000 0.041 0.163 0.363 0.640 0.987 1.401 1.874 2.400 2.970 3.578 4.213 4.869 5.537 6.210 6.879 7.539 8.183 8.805 9.403 9.970 10.506 11.007 11.473 11.902 12.295 12.652 12.974 13.263 13.520 13.748 13.947 14.122
14.124 13.950 13.751 13.524 13.268 12.980 12.658 12.302 11.910 11.482 11.018 10.518 9.984 9.418 8.822 8.201 7.559 6.901 6.234 5.563 4.897 4.243 3.609 3.003 2.434 1.910 1.438 1.025 0.679 0.403 0.203 0.081 0.041 0.081 0.203 0.403 0.679 1.025 1.438 1.910 2.434 3.003 3.609 4.243 4.897 5.563 6.234 6.901 7.559 8.201 8.822 9.418 9.984 10.518 11.018 11.482 11.910 12.302 12.658 12.980 13.268 13.524 13.751 13.950 14.124
14.132 13.959 13.762 13.537 13.282 12.997 12.678 12.325 11.936 11.511 11.051 10.555 10.025 9.464 8.873 8.257 7.620 6.967 6.305 5.640 4.979 4.330 3.702 3.101 2.537 2.017 1.548 1.139 0.795 0.522 0.323 0.203 0.163 0.203 0.323 0.522 0.795 1.139 1.548 2.017 2.537 3.101 3.702 4.330 4.979 5.640 6.305 6.967 7.620 8.257 8.873 9.464 10.025 10.555 11.051 11.511 11.936 12.325 12.678 12.997 13.282 13.537 13.762 13.959 14.132
14.145 13.974 13.779 13.557 13.306 13.024 12.710 12.361 11.978 11.559 11.105 10.616 10.093 9.539 8.956 8.349 7.720 7.076 6.423 5.767 5.115 4.475 3.855 3.262 2.705 2.192 1.730 1.327 0.987 0.718 0.522 0.403 0.363 0.403 0.522 0.718 0.987 1.327 1.730 2.192 2.705 3.262 3.855 4.475 5.115 5.767 6.423 7.076 7.720 8.349 8.956 9.539 10.093 10.616 11.105 11.559 11.978 12.361 12.710 13.024 13.306 13.557 13.779 13.974 14.145
14.162 13.995 13.803 13.585 13.339 13.063 12.754 12.412 12.036 11.625 11.179 10.699 10.186 9.643 9.071 8.475 7.858 7.227 6.586 5.942 5.302 4.674 4.065 3.484 2.938 2.434 1.981 1.585 1.252 0.987 0.795 0.679 0.640 0.679 0.795 0.987 1.252 1.585 1.981 2.434 2.938 3.484 4.065 4.674 5.302 5.942 6.586 7.227 7.858 8.475 9.071 9.643 10.186 10.699 11.179 11.625 12.036 12.412 12.754 13.063 13.339 13.585 13.803 13.995 14.162
14.183 14.020 13.834 13.621 13.381 13.111 12.810 12.476 12.109 11.708 11.273 10.804 10.304 9.773 9.215 8.634 8.032 7.415 6.790 6.162 5.537 4.924 4.330 3.763 3.230 2.739 2.296 1.910 1.585 1.327 1.139 1.025 0.987 1.025 1.139 1.327 1.585 1.910 2.296 2.739 3.230 3.763 4.330 4.924 5.537 6.162 6.790 7.415 8.032 8.634 9.215 9.773 10.304 10.804 11.273 11.708 12.109 12.476 12.810 13.111 13.381 13.621 13.834 14.020 14.183
14.209 14.051 13.870 13.663 13.430 13.168 12.876 12.552 12.196 11.806 11.384 10.929 10.444 9.929 9.387 8.822 8.238 7.640 7.033 6.423 5.817 5.222 4.646 4.095 3.578 3.101 2.672 2.296 1.981 1.730 1.548 1.438 1.401 1.438 1.548 1.730 1.981 2.296 2.672 3.101 3.578 4.095 4.646 5.222 5.817 6.423 7.033 7.640 8.238 8.822 9.387 9.929 10.444 10.929 11.384 11.806 12.196 12.552 12.876 13.168 13.430 13.663 13.870 14.051 14.209
14.238 14.086 13.911 13.712 13.486 13.233 12.951 12.639 12.295 11.919 11.511 11.073 10.604 10.107 9.584 9.038 8.475 7.897 7.311 6.722 6.137 5.563 5.007 4.475 3.975 3.515 3.101 2.739 2.434 2.192 2.017 1.910 1.874 1.910 2.017 2.192 2.434 2.739 3.101 3.515 3.975 4.475 5.007 5.563 6.137 6.722 7.311 7.897 8.475 9.038 9.584 10.107 10.604 11.073 11.511 11.919 12.295 12.639 12.951 13.233 13.486 13.712 13.911 14.086 14.238
14.271 14.124 13.956 13.765 13.549 13.306 13.035 12.735 12.405 12.044 11.653 11.231 10.781 10.304 9.802 9.279 8.737 8.183 7.620 7.055 6.493 5.942 5.407 4.897 4.417 3.975 3.578 3.230 2.938 2.705 2.537 2.434 2.400 2.434 2.537 2.705 2.938 3.230 3.578 3.975 4.417 4.897 5.407 5.942 6.493 7.055 7.620 8.183 8.737 9.279 9.802 10.304 10.781 11.231 11.653 12.044 12.405 12.735 13.035 13.306 13.549 13.765 13.956 14.124 14.271
14.307 14.167 14.006 13.824 13.617 13.385 13.126 12.840 12.524 12.180 11.806 11.404 10.974 10.518 10.039 9.539 9.022 8.493 7.955 7.415 6.879 6.353 5.842 5.355 4.897 4.475 4.095 3.763 3.484 3.262 3.101 3.003 2.970 3.003 3.101 3.262 3.484 3.763 4.095 4.475 4.897 5.355 5.842 6.353 6.879 7.415 7.955 8.493 9.022 9.539 10.039 10.518 10.974 11.404 11.806 12.180 12.524 12.840 13.126 13.385 13.617 13.824 14.006 14.167 14.307
14.344 14.211 14.059 13.886 13.689 13.469 13.223 12.951 12.652 12.325 11.970 11.587 11.179 10.746 10.291 9.816 9.325 8.822 8.312 7.799 7.290 6.790 6.305 5.842 5.407 5.007 4.646 4.330 4.065 3.855 3.702 3.609 3.578 3.609 3.702 3.855 4.065 4.330 4.646 5.007 5.407 5.842 6.305 6.790 7.290 7.799 8.312 8.822 9.325 9.816 10.291 10.746 11.179 11.587 11.970 12.325 12.652 12.951 13.223 13.469 13.689 13.886 14.059 14.211 14.344
14.384 14.258 14.114 13.950 13.765 13.557 13.325 13.068 12.785 12.476 12.141 11.780 11.394 10.985 10.555 10.107 9.643 9.168 8.686 8.201 7.720 7.248 6.790 6.353 5.942 5.563 5.222 4.924 4.674 4.475 4.330 4.243 4.213 4.243 4.330 4.475 4.674 4.924 5.222 5.563 5.942 6.353 6.790 7.248 7.720 8.201 8.686 9.168 9.643 10.107 10.555 10.985 11.394 11.780 12.141 12.476 12.785 13.068 13.325 13.557 13.765 13.950 14.114 14.258 14.384
14.425 14.307 14.171 14.017 13.843 13.648 13.430 13.188 12.923 12.632 12.317 11.978 11.616 11.231 10.827 10.406 9.970 9.524 9.071 8.616 8.164 7.720 7.290 6.879 6.493 6.137 5.817 5.537 5.302 5.115 4.979 4.897 4.869 4.897 4.979 5.115 5.302 5.537 5.817 6.137 6.493 6.879 7.290 7.720 8.164 8.616 9.071 9.524 9.970 10.406 10.827 11.231 11.616 11.978 12.317 12.632 12.923 13.188 13.430 13.648 13.843 14.017 14.171 14.307 14.425
14.466 14.356 14.230 14.086 13.923 13.740 13.537 13.311 13.063 12.791 12.497 12.180 11.841 11.482 11.105 10.711 10.304 9.887 9.464 9.038 8.616 8.201 7.799 7.415 7.055 6.722 6.423 6.162 5.942 5.767 5.640 5.563 5.537 5.563 5.640 5.767 5.942 6.162 6.423 6.722 7.055 7.415 7.799 8.201 8.616 9.038 9.464 9.887 10.304 10.711 11.105 11.482 11.841 12.180 12.497 12.791 13.063 13.311 13.537 13.740 13.923 14.086 14.230 14.356 14.466
14.508 14.406 14.288 14.154 14.003 13.834 13.644 13.434 13.203 12.951 12.678 12.383 12.069 11.735 11.384 11.018 10.640 10.252 9.859 9.464 9.071 8.686 8.312 7.955 7.620 7.311 7.033 6.790 6.586 6.423 6.305 6.234 6.210 6.234 6.305 6.423 6.586 6.790 7.033 7.311 7.620 7.955 8.312 8.686 9.071 9.464 9.859 10.252 10.640 11.018 11.384 11.735 12.069 12.383 12.678 12.951 13.203 13.434 13.644 13.834 14.003 14.154 14.288 14.406 14.508
14.550 14.455 14.346 14.223 14.083 13.926 13.751 13.557 13.344 13.111 12.858 12.586 12.295 11.986 11.662 11.324 10.974 10.616 10.252 9.887 9.524 9.168 8.822 8.493 8.183 7.897 7.640 7.415 7.227 7.076 6.967 6.901 6.879 6.901 6.967 7.076 7.227 7.415 7.640 7.897 8.183 8.493 8.822 9.168 9.524 9.887 10.252 10.616 10.974 11.324 11.662 11.986 12.295 12.586 12.858 13.111 13.344 13.557 13.751 13.926 14.083 14.223 14.346 14.455 14.550
14.591 14.504 14.404 14.290 14.162 14.017 13.857 13.678 13.482 13.268 13.035 12.785 12.518 12.234 11.936 11.625 11.303 10.974 10.640 10.304 9.970 9.643 9.325 9.022 8.737 8.475 8.238 8.032 7.858 7.720 7.620 7.559 7.539 7.559 7.620 7.720 7.858 8.032 8.238 8.475 8.737 9.022 9.325 9.643 9.970 10.304 10.640 10.974 11.303 11.625 11.936 12.234 12.518 12.785 13.035 13.268 13.482 13.678 13.857 14.017 14.162 14.290 14.404 14.504 14.591
14.631 14.551 14.460 14.356 14.238 14.107 13.959 13.796 13.617 13.421 13.209 12.980 12.735 12.476 12.203 11.919 11.625 11.324 11.018 10.711 10.406 10.107 9.816 9.539 9.279 9.038 8.822 8.634 8.475 8.349 8.257 8.201 8.183 8.201 8.257 8.349 8.475 8.634 8.822 9.038 9.279 9.539 9.816 10.107 10.406 10.711 11.018 11.324 11.625 11.919 12.203 12.476 12.735 12.980 13.209 13.421 13.617 13.796 13.959 14.107 14.238 14.356 14.460 14.551 14.631
14.669 14.597 14.514 14.420 14.313 14.193 14.059 13.911 13.748 13.569 13.376 13.168 12.946 12.710 12.462 12.203 11.936 11.662 11.384 11.105 10.827 10.555 10.291 10.039 9.802 9.584 9.387 9.215 9.071 8.956 8.873 8.822 8.805 8.822 8.873 8.956 9.071 9.215 9.387 9.584 9.802 10.039 10.291 10.555 10.827 11.105 11.384 11.662 11.936 12.203 12.462 12.710 12.946 13.168 13.376 13.569 13.748 13.911 14.059 14.193 14.313 14.420 14.514 14.597 14.669
14.707 14.641 14.566 14.481 14.384 14.275 14.154 14.020 13.873 13.712 13.537 13.348 13.147 12.934 12.710 12.476 12.234 11.986 11.735 11.482 11.231 10.985 10.746 10.518 10.304 10.107 9.929 9.773 9.643 9.539 9.464 9.418 9.403 9.418 9.464 9.539 9.643 9.773 9.929 10.107 10.304 10.518 10.746 10.985 11.231 11.482 11.735 11.986 12.234 12.476 12.710 12.934 13.147 13.348 13.537 13.712 13.873 14.020 14.154 14.275 14.384 14.481 14.566 14.641 14.707
14.742 14.683 14.615 14.539 14.452 14.354 14.245 14.124 13.992 13.847 13.689 13.520 13.339 13.147 12.946 12.735 12.518 12.295 12.069 11.841 11.616 11.394 11.179 10.974 10.781 10.604 10.444 10.304 10.186 10.093 10.025 9.984 9.970 9.984 10.025 10.093 10.186 10.304 10.444 10.604 10.781 10.974 11.179 11.394 11.616 11.841 12.069 12.295 12.518 12.735 12.946 13.147 13.339 13.520 13.689 13.847 13.992 14.124 14.245 14.354 14.452 14.539 14.615 14.683 14.742
14.775 14.722 14.662 14.593 14.515 14.428 14.331 14.223 14.104 13.974 13.834 13.682 13.520 13.348 13.168 12.980 12.785 12.586 12.383 12.180 11.978 11.780 11.587 11.404 11.231 11.073 10.929 10.804 10.699 10.616 10.555 10.518 10.506 10.518 10.555 10.616 10.699 10.804 10.929 11.073 11.231 11.404 11.587 11.780 11.978 12.180 12.383 12.586 12.785 12.980 13.168 13.348 13.520 13.682 13.834 13.974 14.104 14.223 14.331 14.428 14.515 14.593 14.662 14.722 14.775
14.806 14.759 14.706 14.644 14.575 14.498 14.411 14.315 14.209 14.094 13.968 13.834 13.689 13.537 13.376 13.209 13.035 12.858 12.678 12.497 12.317 12.141 11.970 11.806 11.653 11.511 11.384 11.273 11.179 11.105 11.051 11.018 11.007 11.018 11.051 11.105 11.179 11.273 11.384 11.511 11.653 11.806 11.970 12.141 12.317 12.497 12.678 12.858 13.035 13.209 13.376 13.537 13.689 13.834 13.968 14.094 14.209 14.315 14.411 14.498 14.575 14.644 14.706 14.759 14.806
14.835 14.794 14.746 14.692 14.631 14.562 14.485 14.400 14.307 14.204 14.094 13.974 13.847 13.712 13.569 13.421 13.268 13.111 12.951 12.791 12.632 12.476 12.325 12.180 12.044 11.919 11.806 11.708 11.625 11.559 11.511 11.482 11.473 11.482 11.511 11.559 11.625 11.708 11.806 11.919 12.044 12.180 12.325 12.476 12.632 12.791 12.951 13.111 13.268 13.421 13.569 13.712 13.847 13.974 14.094 14.204 14.307 14.400 14.485 14.562 14.631 14.692 14.746 14.794 14.835
14.862 14.825 14.783 14.736 14.682 14.621 14.554 14.479 14.397 14.307 14.209 14.104 13.992 13.873 13.748 13.617 13.482 13.344 13.203 13.063 12.923 12.785 12.652 12.524 12.405 12.295 12.196 12.109 12.036 11.978 11.936 11.910 11.902 11.910 11.936 11.978 12.036 12.109 12.196 12.295 12.405 12.524 12.652 12.785 12.923 13.063 13.203 13.344 13.482 13.617 13.748 13.873 13.992 14.104 14.209 14.307 14.397 14.479 14.554 14.621 14.682 14.736 14.783 14.825 14.862
14.886 14.854 14.818 14.776 14.729 14.676 14.617 14.551 14.479 14.400 14.315 14.223 14.124 14.020 13.911 13.796 13.678 13.557 13.434 13.311 13.188 13.068 12.951 12.840 12.735 12.639 12.552 12.476 12.412 12.361 12.325 12.302 12.295 12.302 12.325 12.361 12.412 12.476 12.552 12.639 12.735 12.840 12.951 13.068 13.188 13.311 13.434 13.557 13.678 13.796 13.911 14.020 14.124 14.223 14.315 14.400 14.479 14.551 14.617 14.676 14.729 14.776 14.818 14.854 14.886
14.909 14.881 14.849 14.812 14.771 14.725 14.674 14.617 14.554 14.485 14.411 14.331 14.245 14.154 14.059 13.959 13.857 13.751 13.644 13.537 13.430 13.325 13.223 13.126 13.035 12.951 12.876 12.810 12.754 12.710 12.678 12.658 12.652 12.658 12.678 12.710 12.754 12.810 12.876 12.951 13.035 13.126 13.223 13.325 13.430 13.537 13.644 13.751 13.857 13.959 14.059 14.154 14.245 14.331 14.411 14.485 14.554 14.617 14.674 14.725 14.771 14.812 14.849 14.881 14.909
14.929 14.904 14.877 14.845 14.810 14.770 14.725 14.676 14.621 14.562 14.498 14.428 14.354 14.275 14.193 14.107 14.017 13.926 13.834 13.740 13.648 13.557 13.469 13.385 13.306 13.233 13.168 13.111 13.063 13.024 12.997 12.980 12.974 12.980 12.997 13.024 13.063 13.111 13.168 13.233 13.306 13.385 13.469 13.557 13.648 13.740 13.834 13.926 14.017 14.107 14.193 14.275 14.354 14.428 14.498 14.562 14.621 14.676 14.725 14.770 14.810 14.845 14.877 14.904 14.929
14.947 14.926 14.902 14.875 14.844 14.810 14.771 14.729 14.682 14.631 14.575 14.515 14.452 14.384 14.313 14.238 14.162 14.083 14.003 13.923 13.843 13.765 13.689 13.617 13.549 13.486 13.430 13.381 13.339 13.306 13.282 13.268 13.263 13.268 13.282 13.306 13.339 13.381 13.430 13.486 13.549 13.617 13.689 13.765 13.843 13.923 14.003 14.083 14.162 14.238 14.313 14.384 14.452 14.515 14.575 14.631 14.682 14.729 14.771 14.810 14.844 14.875 14.902 14.926 14.947
14.963 14.945 14.924 14.901 14.875 14.845 14.812 14.776 14.736 14.692 14.644 14.593 14.539 14.481 14.420 14.356 14.290 14.223 14.154 14.086 14.017 13.950 13.886 13.824 13.765 13.712 13.663 13.621 13.585 13.557 13.537 13.524 13.520 13.524 13.537 13.557 13.585 13.621 13.663 13.712 13.765 13.824 13.886 13.950 14.017 14.086 14.154 14.223 14.290 14.356 14.420 14.481 14.539 14.593 14.644 14.692 14.736 14.776 14.812 14.845 14.875 14.901 14.924 14.945 14.963
14.977 14.962 14.944 14.924 14.902 14.877 14.849 14.818 14.783 14.746 14.706 14.662 14.615 14.566 14.514 14.460 14.404 14.346 14.288 14.230 14.171 14.114 14.059 14.006 13.956 13.911 13.870 13.834 13.803 13.779 13.762 13.751 13.748 13.751 13.762 13.779 13.803 13.834 13.870 13.911 13.956 14.006 14.059 14.114 14.171 14.230 14.288 14.346 14.404 14.460 14.514 14.566 14.615 14.662 14.706 14.746 14.783 14.818 14.849 14.877 14.902 14.924 14.944 14.962 14.977
14.989 14.976 14.962 14.945 14.926 14.904 14.881 14.854 14.825 14.794 14.759 14.722 14.683 14.641 14.597 14.551 14.504 14.455 14.406 14.356 14.307 14.258 14.211 14.167 14.124 14.086 14.051 14.020 13.995 13.974 13.959 13.950 13.947 13.950 13.959 13.974 13.995 14.020 14.051 14.086 14.124 14.167 14.211 14.258 14.307 14.356 14.406 14.455 14.504 14.551 14.597 14.641 14.683 14.722 14.759 14.794 14.825 14.854 14.881 14.904 14.926 14.945 14.962 14.976 14.989
15.000 14.989 14.977 14.963 14.947 14.929 14.909 14.886 14.862 14.835 14.806 14.775 14.742 14.707 14.669 14.631 14.591 14.550 14.508 14.466 14.425 14.384 14.344 14.307 14.271 14.238 14.209 14.183 14.162 14.145 14.132 14.124 14.122 14.124 14.132 14.145 14.162 14.183 14.209 14.238 14.271 14.307 14.344 14.384 14.425 14.466 14.508 14.550 14.591 14.631 14.669 14.707 14.742 14.775 14.806 14.835 14.862 14.886 14.909 14.929 14.947 14.963 14.977 14.989 15.000
