NCOLS 65
NROWS 65
XLLCORNER 0
YLLCORNER 0
CELLSIZE 1
NODATA_VALUE -9999
10.669 11.461 12.238 12.979 13.668 14.289 14.826 15.266 15.600 15.819 15.917 15.893 15.746 15.480 15.101 14.617 14.042 13.387 12.670 11.908 11.120 10.325 9.544 8.795 8.098 7.470 6.927 6.483 6.148 5.931 5.837 5.867 6.022 6.297 6.683 7.172 7.750 8.402 9.112 9.863 10.634 11.406 12.160 12.878 13.541 14.132 14.637 15.044 15.341 15.523 15.584 15.522 15.340 15.042 14.634 14.128 13.535 12.870 12.150 11.392 10.615 9.838 9.080 8.360 7.695
10.610 11.407 12.190 12.938 13.636 14.266 14.814 15.266 15.612 15.844 15.955 15.943 15.808 15.553 15.184 14.709 14.139 13.488 12.772 12.008 11.216 10.415 9.626 8.867 8.159 7.518 6.963 6.505 6.158 5.929 5.823 5.844 5.989 6.255 6.635 7.117 7.690 8.339 9.046 9.793 10.562 11.333 12.086 12.803 13.465 14.056 14.560 14.967 15.264 15.446 15.506 15.445 15.263 14.964 14.556 14.050 13.457 12.792 12.072 11.314 10.537 9.760 9.002 8.281 7.617
10.401 11.205 11.996 12.754 13.462 14.104 14.666 15.133 15.494 15.742 15.870 15.874 15.755 15.514 15.157 14.692 14.129 13.483 12.768 12.003 11.206 10.397 9.597 8.826 8.103 7.447 6.875 6.402 6.038 5.794 5.674 5.681 5.814 6.070 6.440 6.915 7.482 8.125 8.828 9.572 10.338 11.107 11.859 12.574 13.236 13.826 14.330 14.736 15.033 15.215 15.275 15.214 15.031 14.733 14.325 13.818 13.225 12.560 11.840 11.082 10.304 9.527 8.769 8.049 7.384
10.053 10.866 11.667 12.436 13.158 13.816 14.394 14.879 15.261 15.529 15.677 15.702 15.602 15.378 15.037 14.584 14.031 13.390 12.677 11.910 11.106 10.288 9.475 8.688 7.947 7.272 6.680 6.186 5.802 5.538 5.400 5.391 5.510 5.752 6.111 6.576 7.135 7.771 8.469 9.209 9.972 10.738 11.488 12.202 12.863 13.452 13.956 14.362 14.659 14.840 14.900 14.838 14.656 14.357 13.949 13.442 12.849 12.184 11.463 10.705 9.928 9.150 8.392 7.671 7.007
9.583 10.406 11.219 12.004 12.742 13.419 14.018 14.526 14.931 15.224 15.398 15.447 15.371 15.169 14.847 14.409 13.868 13.234 12.523 11.753 10.942 10.111 9.282 8.475 7.713 7.014 6.397 5.878 5.469 5.182 5.021 4.992 5.092 5.318 5.664 6.117 6.666 7.294 7.985 8.720 9.479 10.243 10.990 11.703 12.362 12.950 13.454 13.859 14.155 14.336 14.396 14.334 14.151 13.852 13.444 12.937 12.344 11.678 10.958 10.199 9.421 8.644 7.885 7.165 6.500
9.012 9.848 10.675 11.477 12.236 12.935 13.560 14.095 14.529 14.853 15.057 15.137 15.089 14.914 14.614 14.196 13.668 13.043 12.334 11.561 10.741 9.895 9.046 8.217 7.427 6.699 6.052 5.503 5.064 4.748 4.561 4.507 4.585 4.792 5.120 5.559 6.096 6.715 7.398 8.127 8.881 9.641 10.386 11.096 11.754 12.341 12.844 13.248 13.544 13.725 13.784 13.722 13.539 13.240 12.831 12.324 11.730 11.065 10.344 9.585 8.807 8.029 7.270 6.549 5.884
8.365 9.215 10.061 10.884 11.667 12.393 13.047 13.615 14.085 14.444 14.685 14.800 14.787 14.643 14.371 13.975 13.463 12.848 12.143 11.365 10.534 9.671 8.799 7.941 7.120 6.358 5.675 5.089 4.615 4.265 4.046 3.962 4.014 4.198 4.506 4.929 5.451 6.059 6.733 7.454 8.203 8.959 9.700 10.408 11.064 11.650 12.152 12.555 12.851 13.031 13.090 13.027 12.844 12.544 12.136 11.628 11.034 10.368 9.646 8.887 8.109 7.330 6.571 5.850 5.185
7.671 8.539 9.405 10.253 11.064 11.822 12.511 13.117 13.627 14.029 14.312 14.469 14.496 14.389 14.148 13.779 13.287 12.683 11.981 11.199 10.355 9.472 8.573 7.682 6.824 6.022 5.297 4.669 4.154 3.763 3.507 3.389 3.410 3.567 3.852 4.255 4.761 5.355 6.019 6.732 7.474 8.224 8.962 9.668 10.321 10.906 11.407 11.809 12.104 12.284 12.343 12.279 12.095 11.795 11.386 10.877 10.283 9.616 8.894 8.134 7.355 6.577 5.817 5.096 4.430
6.961 7.849 8.739 9.615 10.458 11.252 11.982 12.632 13.189 13.638 13.971 14.176 14.249 14.183 13.980 13.640 13.170 12.580 11.882 11.094 10.236 9.330 8.400 7.472 6.571 5.723 4.950 4.274 3.710 3.274 2.975 2.818 2.805 2.931 3.189 3.569 4.057 4.635 5.287 5.990 6.725 7.470 8.204 8.906 9.557 10.141 10.640 11.042 11.336 11.514 11.573 11.509 11.324 11.023 10.613 10.104 9.509 8.841 8.118 7.358 6.578 5.799 5.039 4.317 3.650
6.267 7.177 8.094 9.001 9.881 10.716 11.492 12.191 12.800 13.304 13.691 13.951 14.075 14.057 13.895 13.589 13.144 12.569 11.876 11.082 10.207 9.275 8.310 7.340 6.392 5.492 4.665 3.934 3.317 2.830 2.483 2.282 2.228 2.320 2.548 2.903 3.370 3.932 4.569 5.262 5.989 6.728 7.457 8.156 8.805 9.386 9.884 10.284 10.578 10.755 10.813 10.748 10.562 10.261 9.850 9.340 8.743 8.075 7.351 6.590 5.809 5.029 4.268 3.545 2.878
5.618 6.554 7.501 8.442 9.362 10.243 11.068 11.822 12.489 13.053 13.501 13.821 14.002 14.037 13.920 13.652 13.234 12.676 11.988 11.187 10.294 9.333 8.330 7.313 6.312 5.355 4.469 3.678 3.002 2.458 2.058 1.809 1.712 1.765 1.961 2.288 2.732 3.275 3.898 4.580 5.298 6.030 6.754 7.449 8.095 8.674 9.171 9.570 9.862 10.039 10.095 10.030 9.843 9.540 9.128 8.617 8.019 7.349 6.624 5.862 5.080 4.298 3.536 2.813 2.144
5.045 6.007 6.986 7.965 8.928 9.858 10.738 11.551 12.280 12.910 13.424 13.808 14.051 14.142 14.075 13.847 13.460 12.920 12.237 11.429 10.517 9.524 8.480 7.413 6.355 5.336 4.386 3.529 2.790 2.185 1.728 1.427 1.284 1.296 1.456 1.754 2.173 2.697 3.304 3.973 4.681 5.406 6.125 6.817 7.460 8.037 8.532 8.930 9.221 9.397 9.452 9.385 9.197 8.892 8.479 7.966 7.366 6.695 5.968 5.204 4.421 3.638 2.874 2.149 1.480
4.571 5.562 6.575 7.595 8.603 9.585 10.523 11.398 12.194 12.892 13.476 13.929 14.237 14.388 14.374 14.188 13.833 13.311 12.635 11.820 10.886 9.861 8.772 7.653 6.535 5.451 4.433 3.508 2.701 2.032 1.515 1.159 0.966 0.936 1.059 1.326 1.720 2.223 2.813 3.470 4.169 4.887 5.600 6.288 6.929 7.504 7.997 8.393 8.683 8.857 8.911 8.842 8.652 8.346 7.930 7.415 6.814 6.140 5.411 4.645 3.860 3.075 2.309 1.583 0.912
4.219 5.240 6.288 7.348 8.405 9.440 10.437 11.377 12.241 13.011 13.666 14.191 14.566 14.780 14.819 14.679 14.356 13.854 13.184 12.361 11.406 10.347 9.213 8.039 6.859 5.708 4.620 3.625 2.749 2.013 1.435 1.022 0.779 0.705 0.791 1.026 1.394 1.876 2.450 3.094 3.784 4.494 5.203 5.887 6.525 7.098 7.589 7.985 8.273 8.445 8.497 8.426 8.234 7.925 7.507 6.989 6.385 5.709 4.977 4.208 3.420 2.633 1.866 1.137 0.464
4.004 5.054 6.138 7.240 8.344 9.434 10.491 11.496 12.429 13.270 13.999 14.594 15.038 15.314 15.409 15.313 15.023 14.541 13.878 13.047 12.071 10.977 9.798 8.569 7.327 6.109 4.950 3.884 2.939 2.138 1.497 1.029 0.736 0.618 0.667 0.871 1.213 1.675 2.233 2.865 3.546 4.250 4.954 5.634 6.270 6.841 7.331 7.724 8.011 8.181 8.231 8.158 7.963 7.651 7.230 6.709 6.101 5.422 4.686 3.914 3.123 2.333 1.562 0.831 0.156
3.937 5.016 6.134 7.277 8.428 9.571 10.686 11.755 12.756 13.667 14.467 15.133 15.643 15.981 16.128 16.076 15.819 15.357 14.700 13.862 12.865 11.739 10.515 9.233 7.930 6.646 5.420 4.285 3.272 2.407 1.707 1.184 0.843 0.683 0.696 0.870 1.189 1.632 2.176 2.797 3.469 4.167 4.867 5.545 6.179 6.748 7.236 7.628 7.913 8.081 8.128 8.052 7.854 7.539 7.113 6.588 5.976 5.292 4.553 3.776 2.981 2.187 1.413 0.678 0.000
4.019 5.126 6.278 7.459 8.654 9.847 11.018 12.147 13.213 14.191 15.058 15.790 16.364 16.759 16.958 16.948 16.721 16.278 15.627 14.782 13.766 12.608 11.343 10.011 8.651 7.305 6.015 4.816 3.740 2.815 2.059 1.486 1.100 0.902 0.882 1.030 1.327 1.753 2.284 2.896 3.562 4.256 4.953 5.629 6.261 6.829 7.316 7.706 7.989 8.154 8.198 8.119 7.917 7.597 7.166 6.636 6.019 5.330 4.585 3.803 3.003 2.204 1.426 0.687 0.005
4.250 5.382 6.564 7.780 9.016 10.254 11.476 12.660 13.784 14.823 15.751 16.544 17.176 17.624 17.869 17.897 17.698 17.273 16.627 15.776 14.743 13.557 12.255 10.877 9.466 8.065 6.717 5.460 4.329 3.350 2.545 1.927 1.502 1.270 1.223 1.348 1.627 2.039 2.561 3.165 3.827 4.518 5.213 5.888 6.519 7.087 7.573 7.961 8.242 8.405 8.445 8.361 8.154 7.828 7.392 6.856 6.232 5.536 4.785 3.997 3.191 2.386 1.603 0.858 0.172
4.621 5.774 6.981 8.228 9.499 10.777 12.043 13.275 14.449 15.540 16.522 17.367 18.049 18.543 18.828 18.889 18.715 18.305 17.665 16.809 15.761 14.551 13.217 11.801 10.346 8.899 7.502 6.196 5.017 3.994 3.148 2.493 2.036 1.777 1.708 1.816 2.082 2.484 2.999 3.600 4.259 4.950 5.645 6.320 6.952 7.519 8.004 8.392 8.670 8.829 8.865 8.776 8.563 8.231 7.788 7.244 6.612 5.909 5.150 4.354 3.540 2.729 1.938 1.188 0.496
5.115 6.286 7.514 8.786 10.085 11.395 12.696 13.966 15.181 16.315 17.339 18.227 18.949 19.480 19.798 19.885 19.732 19.334 18.699 17.839 16.780 15.552 14.193 12.747 11.258 9.774 8.340 6.997 5.781 4.724 3.847 3.165 2.686 2.408 2.324 2.420 2.679 3.077 3.589 4.190 4.850 5.542 6.239 6.916 7.550 8.118 8.602 8.988 9.264 9.419 9.450 9.355 9.135 8.795 8.343 7.790 7.149 6.436 5.668 4.863 4.041 3.221 2.423 1.665 0.967
5.714 6.898 8.141 9.430 10.750 12.083 13.409 14.707 15.951 17.116 18.171 19.089 19.841 20.399 20.740 20.847 20.708 20.320 19.689 18.828 17.761 16.521 15.145 13.678 12.167 10.658 9.199 7.831 6.592 5.513 4.618 3.920 3.428 3.140 3.050 3.143 3.400 3.799 4.315 4.919 5.583 6.280 6.981 7.662 8.298 8.868 9.352 9.737 10.010 10.161 10.186 10.084 9.855 9.506 9.044 8.480 7.829 7.104 6.325 5.509 4.677 3.847 3.039 2.273 1.567
6.393 7.584 8.836 10.135 11.467 12.813 14.154 15.467 16.729 17.911 18.984 19.920 20.688 21.262 21.617 21.736 21.606 21.224 20.595 19.734 18.664 17.418 16.035 14.558 13.036 11.517 10.046 8.668 7.420 6.334 5.432 4.731 4.238 3.951 3.863 3.961 4.224 4.631 5.154 5.766 6.439 7.143 7.851 8.538 9.178 9.750 10.235 10.619 10.888 11.035 11.053 10.943 10.704 10.344 9.870 9.294 8.630 7.892 7.100 6.271 5.426 4.585 3.766 2.990 2.275
7.125 8.318 9.571 10.873 12.207 13.555 14.899 16.217 17.482 18.667 19.745 20.684 21.456 22.034 22.392 22.514 22.387 22.007 21.381 20.521 19.453 18.209 16.827 15.353 13.833 12.316 10.850 9.476 8.234 7.155 6.262 5.570 5.087 4.812 4.737 4.848 5.125 5.545 6.082 6.708 7.392 8.108 8.826 9.520 10.165 10.741 11.228 11.610 11.876 12.017 12.028 11.908 11.658 11.286 10.798 10.208 9.528 8.775 7.968 7.125 6.265 5.410 4.579 3.792 3.065
7.881 9.069 10.317 11.613 12.940 14.281 15.616 16.924 18.179 19.355 20.422 21.352 22.115 22.684 23.036 23.152 23.021 22.641 22.015 21.159 20.098 18.862 17.492 16.031 14.526 13.027 11.579 10.226 9.005 7.947 7.077 6.408 5.948 5.696 5.644 5.777 6.075 6.516 7.072 7.716 8.417 9.147 9.877 10.581 11.234 11.814 12.303 12.684 12.947 13.081 13.083 12.952 12.690 12.303 11.800 11.192 10.496 9.726 8.901 8.041 7.165 6.295 5.449 4.648 3.909
8.629 9.807 11.044 12.326 13.637 14.960 16.276 17.562 18.795 19.947 20.990 21.896 22.637 23.186 23.521 23.623 23.483 23.098 22.473 21.623 20.572 19.352 18.002 16.566 15.090 13.622 12.207 10.889 9.704 8.683 7.849 7.216 6.791 6.573 6.553 6.717 7.045 7.513 8.095 8.761 9.483 10.231 10.976 11.692 12.354 12.940 13.431 13.812 14.070 14.198 14.190 14.047 13.770 13.366 12.845 12.219 11.503 10.713 9.869 8.990 8.095 7.207 6.345 5.529 4.776
9.340 10.503 11.722 12.982 14.269 15.565 16.851 18.104 19.302 20.418 21.425 22.295 23.002 23.520 23.828 23.910 23.755 23.362 22.736 21.893 20.858 19.660 18.340 16.939 15.503 14.079 12.711 11.442 10.307 9.336 8.552 7.967 7.588 7.414 7.437 7.640 8.005 8.507 9.120 9.814 10.560 11.329 12.093 12.823 13.495 14.088 14.582 14.962 15.216 15.336 15.317 15.160 14.867 14.445 13.904 13.257 12.519 11.707 10.841 9.940 9.025 8.117 7.236 6.403 5.635
9.984 11.128 12.323 13.557 14.812 16.072 17.318 18.529 19.681 20.750 21.709 22.533 23.196 23.673 23.947 24.000 23.825 23.421 22.795 21.961 20.944 19.775 18.491 17.135 15.750 14.382 13.074 11.866 10.794 9.885 9.162 8.636 8.314 8.194 8.267 8.518 8.926 9.468 10.117 10.844 11.619 12.412 13.196 13.942 14.627 15.228 15.725 16.104 16.353 16.465 16.434 16.261 15.950 15.508 14.945 14.275 13.512 12.676 11.785 10.861 9.923 8.993 8.092 7.240 6.454
10.537 11.657 12.825 14.025 15.242 16.460 17.659 18.819 19.916 20.929 21.831 22.599 23.209 23.638 23.869 23.889 23.691 23.274 22.645 21.822 20.828 19.692 18.452 17.148 15.823 14.520 13.282 12.147 11.148 10.312 9.659 9.202 8.946 8.888 9.019 9.323 9.781 10.369 11.058 11.822 12.629 13.450 14.256 15.021 15.719 16.328 16.830 17.208 17.452 17.554 17.510 17.321 16.990 16.526 15.939 15.243 14.454 13.591 12.673 11.722 10.759 9.806 8.882 8.009 7.205
10.974 12.068 13.204 14.368 15.543 16.713 17.858 18.960 19.997 20.946 21.784 22.489 23.039 23.414 23.598 23.580 23.355 22.923 22.293 21.481 20.511 19.413 18.221 16.976 15.718 14.489 13.329 12.274 11.356 10.602 10.028 9.648 9.464 9.475 9.670 10.034 10.547 11.184 11.918 12.722 13.564 14.415 15.246 16.031 16.744 17.362 17.868 18.246 18.484 18.576 18.518 18.311 17.959 17.471 16.857 16.133 15.316 14.424 13.478 12.498 11.508 10.529 9.581 8.686 7.861
11.279 12.345 13.447 14.571 15.700 16.818 17.907 18.946 19.917 20.798 21.567 22.205 22.690 23.007 23.140 23.081 22.827 22.379 21.747 20.947 20.004 18.946 17.807 16.624 15.438 14.288 13.212 12.244 11.414 10.746 10.258 9.959 9.854 9.938 10.202 10.630 11.201 11.891 12.674 13.520 14.400 15.283 16.141 16.947 17.675 18.304 18.815 19.192 19.424 19.505 19.432 19.206 18.831 18.317 17.676 16.922 16.074 15.151 14.174 13.165 12.146 11.139 10.165 9.246 8.399
11.438 12.474 13.541 14.623 15.705 16.770 17.799 18.774 19.677 20.487 21.185 21.752 22.170 22.426 22.507 22.406 22.121 21.656 21.022 20.236 19.320 18.303 17.219 16.102 14.991 13.923 12.934 12.056 11.317 10.740 10.341 10.128 10.104 10.265 10.601 11.095 11.727 12.474 13.307 14.198 15.116 16.033 16.920 17.748 18.492 19.132 19.647 20.023 20.250 20.320 20.230 19.984 19.585 19.044 18.374 17.589 16.709 15.753 14.744 13.703 12.653 11.617 10.616 9.672 8.802
11.443 12.449 13.481 14.522 15.556 16.567 17.536 18.447 19.280 20.019 20.645 21.141 21.492 21.687 21.715 21.571 21.256 20.775 20.139 19.366 18.478 17.503 16.474 15.424 14.389 13.404 12.503 11.716 11.070 10.585 10.275 10.149 10.208 10.447 10.856 11.419 12.114 12.917 13.802 14.739 15.698 16.650 17.565 18.416 19.177 19.828 20.348 20.724 20.944 21.002 20.896 20.628 20.205 19.636 18.935 18.118 17.205 16.215 15.172 14.098 13.017 11.951 10.922 9.951 9.058
11.293 12.270 13.267 14.268 15.255 16.213 17.123 17.971 18.737 19.405 19.961 20.388 20.673 20.808 20.784 20.599 20.254 19.757 19.119 18.359 17.499 16.566 15.591 14.606 13.646 12.743 11.929 11.233 10.678 10.284 10.064 10.024 10.165 10.483 10.965 11.595 12.353 13.214 14.151 15.134 16.134 17.121 18.065 18.939 19.718 20.379 20.905 21.279 21.493 21.539 21.416 21.126 20.678 20.080 19.348 18.499 17.551 16.527 15.450 14.342 13.228 12.131 11.074 10.077 9.159
10.992 11.942 12.905 13.867 14.809 15.716 16.571 17.358 18.060 18.662 19.149 19.510 19.733 19.810 19.737 19.512 19.139 18.626 17.987 17.240 16.407 15.514 14.591 13.670 12.781 11.958 11.228 10.619 10.153 9.847 9.713 9.757 9.979 10.373 10.926 11.623 12.443 13.361 14.348 15.378 16.418 17.439 18.413 19.310 20.106 20.778 21.308 21.682 21.889 21.923 21.783 21.472 20.998 20.371 19.608 18.725 17.744 16.685 15.573 14.432 13.286 12.158 11.071 10.047 9.105
10.550 11.474 12.406 13.332 14.232 15.092 15.895 16.625 17.266 17.806 18.230 18.529 18.694 18.717 18.598 18.336 17.937 17.410 16.770 16.035 15.227 14.372 13.499 12.637 11.817 11.068 10.418 9.891 9.509 9.287 9.235 9.359 9.657 10.124 10.746 11.508 12.387 13.359 14.396 15.470 16.550 17.605 18.606 19.526 20.338 21.021 21.557 21.929 22.129 22.151 21.994 21.662 21.163 20.508 19.714 18.799 17.784 16.691 15.545 14.370 13.192 12.033 10.918 9.868 8.902
9.983 10.883 11.787 12.679 13.541 14.358 15.113 15.791 16.377 16.860 17.227 17.469 17.580 17.555 17.393 17.097 16.674 16.135 15.494 14.770 13.986 13.166 12.339 11.532 10.774 10.095 9.518 9.068 8.764 8.619 8.644 8.843 9.213 9.748 10.435 11.256 12.192 13.215 14.300 15.416 16.533 17.621 18.649 19.590 20.419 21.112 21.652 22.023 22.217 22.227 22.054 21.701 21.178 20.496 19.672 18.725 17.677 16.551 15.372 14.165 12.956 11.768 10.626 9.550 8.560
9.310 10.189 11.068 11.930 12.758 13.536 14.248 14.879 15.416 15.847 16.163 16.354 16.417 16.348 16.149 15.823 15.379 14.828 14.187 13.473 12.710 11.923 11.136 10.379 9.679 9.062 8.552 8.172 7.938 7.865 7.960 8.226 8.662 9.260 10.006 10.883 11.871 12.942 14.071 15.226 16.378 17.496 18.549 19.511 20.354 21.057 21.601 21.971 22.159 22.158 21.969 21.597 21.051 20.343 19.491 18.514 17.435 16.278 15.068 13.831 12.592 11.377 10.208 9.108 8.097
8.557 9.417 10.273 11.109 11.907 12.651 13.325 13.916 14.409 14.796 15.065 15.213 15.233 15.126 14.893 14.541 14.078 13.518 12.876 12.172 11.428 10.668 9.919 9.206 8.556 7.995 7.545 7.226 7.055 7.045 7.203 7.530 8.025 8.679 9.478 10.406 11.440 12.555 13.723 14.915 16.098 17.244 18.320 19.300 20.156 20.868 21.416 21.785 21.967 21.956 21.753 21.363 20.796 20.064 19.186 18.182 17.075 15.889 14.651 13.386 12.120 10.879 9.686 8.564 7.533
7.751 8.594 9.431 10.245 11.017 11.731 12.373 12.928 13.384 13.731 13.962 14.071 14.054 13.914 13.653 13.278 12.799 12.230 11.588 10.893 10.165 9.430 8.713 8.038 7.433 6.919 6.521 6.256 6.140 6.185 6.397 6.778 7.324 8.027 8.873 9.845 10.921 12.074 13.277 14.500 15.712 16.881 17.978 18.973 19.842 20.562 21.113 21.481 21.658 21.638 21.423 21.017 20.430 19.678 18.777 17.748 16.616 15.405 14.141 12.851 11.562 10.298 9.084 7.942 6.893
6.921 7.751 8.572 9.366 10.116 10.805 11.419 11.944 12.368 12.683 12.880 12.956 12.909 12.741 12.455 12.061 11.569 10.993 10.351 9.662 8.948 8.234 7.544 6.902 6.334 5.861 5.507 5.287 5.218 5.310 5.568 5.994 6.584 7.329 8.215 9.224 10.335 11.520 12.753 14.003 15.238 16.428 17.542 18.552 19.431 20.157 20.711 21.078 21.251 21.223 20.997 20.578 19.975 19.205 18.284 17.235 16.082 14.849 13.563 12.252 10.943 9.659 8.427 7.269 6.204
6.099 6.917 7.724 8.502 9.234 9.903 10.494 10.994 11.391 11.678 11.848 11.897 11.824 11.632 11.326 10.916 10.412 9.830 9.188 8.505 7.803 7.106 6.438 5.823 5.286 4.847 4.529 4.347 4.316 4.446 4.742 5.205 5.831 6.610 7.529 8.568 9.707 10.919 12.176 13.448 14.702 15.909 17.037 18.057 18.945 19.676 20.232 20.599 20.768 20.734 20.500 20.069 19.454 18.669 17.733 16.668 15.497 14.247 12.944 11.616 10.290 8.992 7.745 6.574 5.497
5.315 6.124 6.920 7.685 8.401 9.053 9.625 10.104 10.481 10.745 10.892 10.918 10.824 10.613 10.291 9.867 9.354 8.767 8.124 7.446 6.753 6.070 5.419 4.826 4.313 3.902 3.612 3.460 3.460 3.620 3.946 4.438 5.092 5.897 6.841 7.904 9.064 10.296 11.571 12.859 14.128 15.347 16.485 17.514 18.407 19.142 19.700 20.067 20.233 20.195 19.954 19.516 18.892 18.097 17.149 16.072 14.889 13.626 12.311 10.971 9.633 8.324 7.067 5.885 4.800
4.599 5.400 6.187 6.942 7.646 8.284 8.840 9.303 9.662 9.908 10.037 10.045 9.934 9.707 9.372 8.937 8.416 7.825 7.181 6.506 5.820 5.147 4.511 3.934 3.440 3.049 2.781 2.652 2.674 2.857 3.205 3.718 4.392 5.216 6.177 7.256 8.431 9.677 10.964 12.262 13.540 14.767 15.911 16.945 17.843 18.580 19.139 19.506 19.671 19.630 19.386 18.943 18.314 17.512 16.558 15.474 14.284 13.014 11.691 10.344 8.999 7.683 6.420 5.233 4.142
3.977 4.773 5.552 6.298 6.993 7.620 8.165 8.614 8.959 9.191 9.305 9.299 9.174 8.935 8.588 8.144 7.617 7.022 6.378 5.704 5.023 4.358 3.731 3.166 2.686 2.310 2.057 1.944 1.982 2.180 2.542 3.069 3.755 4.591 5.562 6.650 7.833 9.085 10.378 11.681 12.964 14.194 15.341 16.377 17.276 18.014 18.574 18.941 19.106 19.065 18.819 18.375 17.744 16.941 15.986 14.899 13.707 12.435 11.110 9.761 8.414 7.096 5.832 4.643 3.551
3.473 4.264 5.038 5.778 6.465 7.083 7.618 8.058 8.392 8.612 8.715 8.698 8.562 8.313 7.957 7.506 6.974 6.375 5.729 5.057 4.378 3.718 3.098 2.541 2.069 1.702 1.459 1.356 1.403 1.609 1.979 2.513 3.204 4.044 5.018 6.109 7.293 8.545 9.838 11.140 12.422 13.651 14.797 15.832 16.730 17.468 18.028 18.395 18.561 18.521 18.278 17.836 17.207 16.407 15.454 14.371 13.182 11.913 10.592 9.246 7.903 6.588 5.326 4.140 3.050
3.106 3.893 4.663 5.397 6.079 6.690 7.219 7.650 7.976 8.187 8.281 8.255 8.111 7.854 7.491 7.035 6.497 5.896 5.248 4.575 3.898 3.240 2.623 2.070 1.603 1.241 1.002 0.902 0.953 1.162 1.533 2.066 2.756 3.594 4.565 5.651 6.830 8.077 9.363 10.660 11.935 13.159 14.301 15.332 16.227 16.963 17.522 17.890 18.058 18.022 17.782 17.346 16.724 15.931 14.986 13.911 12.730 11.470 10.158 8.820 7.485 6.177 4.922 3.743 2.659
2.889 3.673 4.440 5.170 5.847 6.454 6.977 7.403 7.722 7.927 8.013 7.980 7.830 7.567 7.199 6.737 6.196 5.591 4.941 4.267 3.589 2.931 2.315 1.763 1.296 0.935 0.696 0.595 0.644 0.849 1.216 1.743 2.426 3.255 4.217 5.292 6.460 7.696 8.971 10.256 11.521 12.735 13.869 14.893 15.783 16.517 17.075 17.444 17.615 17.583 17.351 16.923 16.311 15.530 14.597 13.535 12.368 11.122 9.823 8.498 7.176 5.881 4.637 3.468 2.394
2.830 3.612 4.376 5.104 5.777 6.381 6.899 7.320 7.635 7.834 7.916 7.878 7.722 7.454 7.082 6.616 6.071 5.463 4.811 4.134 3.455 2.795 2.177 1.623 1.154 0.790 0.547 0.441 0.483 0.680 1.037 1.553 2.223 3.039 3.985 5.045 6.196 7.415 8.674 9.943 11.193 12.394 13.516 14.532 15.415 16.144 16.700 17.070 17.245 17.221 16.998 16.582 15.983 15.217 14.301 13.257 12.108 10.880 9.599 8.293 6.987 5.709 4.481 3.326 2.265
2.930 3.711 4.473 5.199 5.870 6.470 6.986 7.403 7.714 7.910 7.988 7.946 7.786 7.514 7.138 6.668 6.120 5.509 4.854 4.175 3.492 2.829 2.208 1.650 1.175 0.805 0.554 0.439 0.470 0.656 0.999 1.499 2.152 2.948 3.875 4.913 6.044 7.241 8.479 9.729 10.961 12.145 13.253 14.256 15.131 15.854 16.409 16.781 16.961 16.944 16.733 16.331 15.749 15.002 14.106 13.084 11.957 10.752 9.494 8.209 6.925 5.667 4.457 3.320 2.275
3.185 3.964 4.725 5.450 6.119 6.717 7.230 7.646 7.954 8.147 8.222 8.177 8.014 7.738 7.359 6.887 6.335 5.721 5.062 4.380 3.693 3.026 2.399 1.835 1.353 0.974 0.713 0.586 0.603 0.773 1.098 1.579 2.210 2.984 3.886 4.900 6.005 7.177 8.391 9.617 10.827 11.992 13.082 14.072 14.937 15.654 16.206 16.580 16.766 16.759 16.561 16.176 15.613 14.888 14.016 13.018 11.918 10.739 9.507 8.248 6.989 5.754 4.566 3.450 2.423
3.583 4.362 5.122 5.845 6.514 7.111 7.622 8.036 8.341 8.533 8.605 8.557 8.392 8.114 7.732 7.257 6.702 6.085 5.423 4.736 4.045 3.372 2.738 2.166 1.676 1.285 1.012 0.871 0.871 1.022 1.327 1.785 2.392 3.139 4.014 5.000 6.076 7.220 8.406 9.605 10.791 11.934 13.006 13.980 14.833 15.544 16.093 16.469 16.661 16.665 16.482 16.115 15.574 14.873 14.028 13.058 11.987 10.837 9.635 8.404 7.173 5.964 4.801 3.707 2.700
4.109 4.888 5.647 6.369 7.037 7.633 8.143 8.555 8.859 9.049 9.120 9.070 8.903 8.623 8.238 7.760 7.203 6.582 5.916 5.224 4.528 3.849 3.208 2.627 2.126 1.723 1.436 1.278 1.260 1.390 1.672 2.105 2.685 3.403 4.248 5.203 6.248 7.361 8.516 9.687 10.846 11.965 13.017 13.975 14.816 15.518 16.065 16.443 16.642 16.658 16.490 16.144 15.627 14.952 14.135 13.196 12.156 11.038 9.867 8.667 7.465 6.285 5.148 4.079 3.095
4.741 5.519 6.278 7.000 7.666 8.262 8.771 9.182 9.485 9.674 9.743 9.692 9.523 9.241 8.854 8.374 7.813 7.189 6.519 5.823 5.121 4.434 3.786 3.195 2.682 2.266 1.964 1.788 1.750 1.858 2.115 2.521 3.072 3.760 4.573 5.495 6.507 7.587 8.711 9.852 10.983 12.077 13.106 14.047 14.875 15.569 16.113 16.493 16.700 16.728 16.577 16.251 15.759 15.112 14.325 13.418 12.411 11.326 10.188 9.022 7.851 6.700 5.592 4.548 3.587
5.453 6.231 6.989 7.711 8.377 8.971 9.480 9.891 10.193 10.380 10.449 10.396 10.226 9.942 9.553 9.070 8.507 7.880 7.205 6.504 5.796 5.103 4.445 3.844 3.319 2.890 2.571 2.376 2.318 2.402 2.633 3.012 3.533 4.190 4.970 5.858 6.836 7.882 8.973 10.082 11.184 12.252 13.260 14.182 14.997 15.683 16.224 16.606 16.820 16.861 16.727 16.423 15.956 15.338 14.582 13.708 12.735 11.684 10.581 9.448 8.309 7.189 6.109 5.091 4.155
6.216 6.994 7.752 8.473 9.139 9.733 10.241 10.651 10.953 11.140 11.207 11.153 10.982 10.696 10.306 9.820 9.254 8.623 7.945 7.239 6.525 5.824 5.157 4.546 4.009 3.565 3.229 3.016 2.936 2.997 3.202 3.552 4.043 4.668 5.414 6.268 7.212 8.224 9.281 10.359 11.432 12.474 13.459 14.363 15.164 15.842 16.380 16.764 16.986 17.039 16.923 16.641 16.200 15.610 14.886 14.045 13.106 12.090 11.021 9.922 8.816 7.726 6.675 5.685 4.773
6.999 7.777 8.535 9.256 9.921 10.515 11.023 11.433 11.734 11.920 11.986 11.932 11.759 11.472 11.080 10.592 10.024 9.389 8.707 7.996 7.275 6.567 5.892 5.270 4.721 4.262 3.910 3.678 3.577 3.614 3.794 4.115 4.576 5.169 5.882 6.702 7.611 8.589 9.614 10.660 11.704 12.720 13.683 14.569 15.357 16.026 16.561 16.948 17.177 17.243 17.144 16.884 16.468 15.907 15.214 14.405 13.500 12.519 11.484 10.418 9.344 8.286 7.264 6.299 5.412
7.771 8.549 9.307 10.028 10.693 11.287 11.794 12.203 12.504 12.689 12.755 12.700 12.526 12.238 11.844 11.354 10.783 10.145 9.459 8.743 8.016 7.301 6.617 5.985 5.424 4.951 4.583 4.332 4.210 4.224 4.378 4.673 5.104 5.665 6.347 7.133 8.009 8.954 9.946 10.962 11.978 12.968 13.909 14.778 15.553 16.214 16.746 17.134 17.371 17.449 17.367 17.128 16.737 16.204 15.541 14.765 13.893 12.945 11.944 10.910 9.868 8.839 7.845 6.907 6.043
8.501 9.278 10.036 10.756 11.422 12.015 12.523 12.931 13.232 13.417 13.482 13.426 13.251 12.962 12.566 12.075 11.501 10.860 10.170 9.449 8.717 7.995 7.302 6.660 6.087 5.601 5.217 4.949 4.807 4.799 4.928 5.196 5.599 6.130 6.780 7.535 8.379 9.292 10.253 11.239 12.228 13.194 14.114 14.966 15.728 16.382 16.910 17.301 17.545 17.635 17.570 17.351 16.983 16.477 15.843 15.097 14.257 13.342 12.372 11.371 10.358 9.358 8.391 7.478 6.637
9.158 9.935 10.693 11.413 12.078 12.672 13.179 13.588 13.888 14.072 14.137 14.080 13.904 13.614 13.217 12.724 12.148 11.504 10.810 10.084 9.347 8.618 7.918 7.266 6.682 6.183 5.784 5.499 5.338 5.309 5.415 5.658 6.034 6.537 7.158 7.882 8.695 9.578 10.510 11.468 12.431 13.374 14.275 15.111 15.861 16.507 17.033 17.426 17.676 17.777 17.727 17.528 17.183 16.702 16.096 15.379 14.569 13.684 12.745 11.773 10.789 9.816 8.875 7.985 7.165
9.716 10.493 11.251 11.972 12.637 13.230 13.737 14.145 14.445 14.629 14.693 14.636 14.459 14.168 13.769 13.275 12.696 12.050 11.353 10.623 9.881 9.145 8.438 7.777 7.183 6.671 6.259 5.958 5.779 5.730 5.815 6.034 6.385 6.862 7.455 8.151 8.936 9.790 10.694 11.627 12.566 13.487 14.370 15.190 15.929 16.569 17.092 17.487 17.743 17.855 17.819 17.637 17.314 16.856 16.276 15.587 14.805 13.949 13.038 12.093 11.137 10.189 9.271 8.403 7.604
10.153 10.930 11.688 12.409 13.073 13.667 14.174 14.582 14.881 15.065 15.129 15.071 14.894 14.601 14.202 13.705 13.125 12.476 11.776 11.042 10.295 9.554 8.839 8.171 7.567 7.044 6.619 6.304 6.108 6.041 6.106 6.303 6.631 7.083 7.651 8.321 9.079 9.908 10.787 11.695 12.612 13.514 14.379 15.186 15.915 16.548 17.069 17.465 17.727 17.848 17.826 17.661 17.357 16.921 16.364 15.700 14.944 14.114 13.230 12.311 11.379 10.455 9.559 8.711 7.930
10.451 11.228 11.986 12.707 13.372 13.965 14.471 14.879 15.179 15.362 15.426 15.367 15.189 14.896 14.495 13.997 13.415 12.764 12.061 11.324 10.572 9.826 9.106 8.429 7.817 7.284 6.847 6.518 6.308 6.224 6.271 6.449 6.755 7.185 7.730 8.376 9.110 9.915 10.771 11.658 12.554 13.438 14.287 15.082 15.801 16.428 16.947 17.345 17.613 17.743 17.732 17.582 17.296 16.880 16.345 15.704 14.972 14.166 13.305 12.409 11.500 10.597 9.721 8.892 8.127
10.599 11.376 12.134 12.854 13.519 14.112 14.618 15.026 15.326 15.509 15.572 15.513 15.334 15.040 14.639 14.139 13.556 12.903 12.197 11.457 10.701 9.950 9.224 8.541 7.920 7.379 6.931 6.591 6.367 6.268 6.298 6.458 6.746 7.156 7.679 8.304 9.017 9.800 10.636 11.503 12.381 13.249 14.084 14.867 15.578 16.200 16.717 17.116 17.388 17.526 17.527 17.390 17.120 16.722 16.207 15.586 14.875 14.090 13.251 12.377 11.487 10.603 9.746 8.933 8.184
10.589 11.366 12.124 12.844 13.509 14.102 14.608 15.016 15.315 15.498 15.561 15.502 15.323 15.028 14.625 14.125 13.540 12.885 12.177 11.434 10.675 9.920 9.189 8.500 7.872 7.322 6.865 6.514 6.279 6.167 6.182 6.326 6.597 6.989 7.494 8.100 8.794 9.558 10.375 11.224 12.086 12.939 13.763 14.536 15.239 15.856 16.372 16.772 17.048 17.194 17.204 17.079 16.823 16.441 15.943 15.340 14.648 13.883 13.063 12.207 11.335 10.469 9.627 8.829 8.094
10.423 11.200 11.958 12.678 13.343 13.936 14.442 14.850 15.149 15.332 15.394 15.335 15.155 14.860 14.456 13.955 13.369 12.712 12.002 11.256 10.494 9.736 9.000 8.306 7.672 7.115 6.650 6.289 6.043 5.920 5.922 6.053 6.309 6.685 7.173 7.763 8.439 9.187 9.988 10.822 11.670 12.510 13.322 14.086 14.784 15.397 15.910 16.312 16.592 16.743 16.762 16.648 16.404 16.036 15.553 14.967 14.291 13.543 12.740 11.900 11.044 10.193 9.365 8.580 7.857
