NCOLS 65
NROWS 65
XLLCORNER 0
YLLCORNER 0
CELLSIZE 1
NODATA_VALUE -9999
0.000 0.006 0.013 0.021 0.030 0.041 0.054 0.068 0.084 0.102 0.122 0.145 0.169 0.195 0.223 0.253 0.285 0.318 0.352 0.387 0.422 0.456 0.490 0.523 0.555 0.584 0.610 0.633 0.653 0.668 0.680 0.687 0.689 0.687 0.680 0.668 0.653 0.633 0.610 0.584 0.555 0.523 0.490 0.456 0.422 0.387 0.352 0.318 0.285 0.253 0.223 0.195 0.169 0.145 0.122 0.102 0.084 0.068 0.054 0.041 0.030 0.021 0.013 0.006 0.000
0.006 0.013 0.021 0.031 0.043 0.056 0.072 0.089 0.109 0.131 0.156 0.183 0.213 0.245 0.280 0.317 0.356 0.396 0.438 0.480 0.523 0.566 0.608 0.648 0.687 0.722 0.755 0.783 0.807 0.826 0.840 0.849 0.852 0.849 0.840 0.826 0.807 0.783 0.755 0.722 0.687 0.648 0.608 0.566 0.523 0.480 0.438 0.396 0.356 0.317 0.280 0.245 0.213 0.183 0.156 0.131 0.109 0.089 0.072 0.056 0.043 0.031 0.021 0.013 0.006
0.013 0.021 0.032 0.044 0.058 0.074 0.093 0.114 0.139 0.166 0.196 0.229 0.265 0.305 0.347 0.392 0.439 0.489 0.540 0.592 0.644 0.696 0.747 0.796 0.843 0.886 0.926 0.961 0.990 1.013 1.030 1.041 1.044 1.041 1.030 1.013 0.990 0.961 0.926 0.886 0.843 0.796 0.747 0.696 0.644 0.592 0.540 0.489 0.439 0.392 0.347 0.305 0.265 0.229 0.196 0.166 0.139 0.114 0.093 0.074 0.058 0.044 0.032 0.021 0.013
0.021 0.031 0.044 0.058 0.076 0.095 0.118 0.144 0.173 0.206 0.243 0.283 0.327 0.375 0.426 0.480 0.538 0.598 0.659 0.722 0.786 0.849 0.911 0.970 1.027 1.080 1.127 1.169 1.205 1.233 1.254 1.266 1.271 1.266 1.254 1.233 1.205 1.169 1.127 1.080 1.027 0.970 0.911 0.849 0.786 0.722 0.659 0.598 0.538 0.480 0.426 0.375 0.327 0.283 0.243 0.206 0.173 0.144 0.118 0.095 0.076 0.058 0.044 0.031 0.021
0.030 0.043 0.058 0.076 0.096 0.120 0.147 0.179 0.214 0.253 0.297 0.346 0.399 0.456 0.518 0.584 0.653 0.725 0.799 0.875 0.951 1.027 1.101 1.173 1.241 1.305 1.362 1.413 1.456 1.490 1.515 1.530 1.535 1.530 1.515 1.490 1.456 1.413 1.362 1.305 1.241 1.173 1.101 1.027 0.951 0.875 0.799 0.725 0.653 0.584 0.518 0.456 0.399 0.346 0.297 0.253 0.214 0.179 0.147 0.120 0.096 0.076 0.058 0.043 0.030
0.041 0.056 0.074 0.095 0.120 0.148 0.181 0.219 0.261 0.308 0.361 0.419 0.482 0.551 0.625 0.703 0.786 0.872 0.961 1.051 1.142 1.233 1.322 1.408 1.490 1.566 1.634 1.695 1.746 1.787 1.817 1.835 1.841 1.835 1.817 1.787 1.746 1.695 1.634 1.566 1.490 1.408 1.322 1.233 1.142 1.051 0.961 0.872 0.786 0.703 0.625 0.551 0.482 0.419 0.361 0.308 0.261 0.219 0.181 0.148 0.120 0.095 0.074 0.056 0.041
0.054 0.072 0.093 0.118 0.147 0.181 0.220 0.264 0.315 0.371 0.433 0.502 0.578 0.659 0.747 0.840 0.938 1.041 1.146 1.254 1.362 1.470 1.576 1.678 1.775 1.865 1.947 2.019 2.080 2.128 2.164 2.185 2.192 2.185 2.164 2.128 2.080 2.019 1.947 1.865 1.775 1.678 1.576 1.470 1.362 1.254 1.146 1.041 0.938 0.840 0.747 0.659 0.578 0.502 0.433 0.371 0.315 0.264 0.220 0.181 0.147 0.118 0.093 0.072 0.054
0.068 0.089 0.114 0.144 0.179 0.219 0.264 0.317 0.376 0.442 0.516 0.598 0.687 0.783 0.886 0.996 1.112 1.233 1.358 1.485 1.613 1.740 1.865 1.986 2.100 2.207 2.303 2.388 2.460 2.517 2.559 2.584 2.593 2.584 2.559 2.517 2.460 2.388 2.303 2.207 2.100 1.986 1.865 1.740 1.613 1.485 1.358 1.233 1.112 0.996 0.886 0.783 0.687 0.598 0.516 0.442 0.376 0.317 0.264 0.219 0.179 0.144 0.114 0.089 0.068
0.084 0.109 0.139 0.173 0.214 0.261 0.315 0.376 0.445 0.523 0.610 0.705 0.810 0.923 1.044 1.173 1.309 1.451 1.597 1.746 1.896 2.046 2.192 2.334 2.468 2.593 2.706 2.806 2.890 2.957 3.006 3.036 3.046 3.036 3.006 2.957 2.890 2.806 2.706 2.593 2.468 2.334 2.192 2.046 1.896 1.746 1.597 1.451 1.309 1.173 1.044 0.923 0.810 0.705 0.610 0.523 0.445 0.376 0.315 0.261 0.214 0.173 0.139 0.109 0.084
0.102 0.131 0.166 0.206 0.253 0.308 0.371 0.442 0.523 0.614 0.715 0.826 0.948 1.080 1.221 1.371 1.530 1.695 1.865 2.039 2.214 2.388 2.559 2.724 2.880 3.026 3.157 3.274 3.372 3.450 3.507 3.542 3.553 3.542 3.507 3.450 3.372 3.274 3.157 3.026 2.880 2.724 2.559 2.388 2.214 2.039 1.865 1.695 1.530 1.371 1.221 1.080 0.948 0.826 0.715 0.614 0.523 0.442 0.371 0.308 0.253 0.206 0.166 0.131 0.102
0.122 0.156 0.196 0.243 0.297 0.361 0.433 0.516 0.610 0.715 0.832 0.961 1.101 1.254 1.418 1.592 1.775 1.966 2.164 2.365 2.567 2.769 2.967 3.157 3.339 3.507 3.660 3.794 3.908 3.998 4.064 4.104 4.118 4.104 4.064 3.998 3.908 3.794 3.660 3.507 3.339 3.157 2.967 2.769 2.567 2.365 2.164 1.966 1.775 1.592 1.418 1.254 1.101 0.961 0.832 0.715 0.610 0.516 0.433 0.361 0.297 0.243 0.196 0.156 0.122
0.145 0.183 0.229 0.283 0.346 0.419 0.502 0.598 0.705 0.826 0.961 1.109 1.271 1.446 1.634 1.835 2.046 2.266 2.492 2.724 2.957 3.189 3.416 3.636 3.844 4.038 4.213 4.368 4.498 4.603 4.679 4.725 4.740 4.725 4.679 4.603 4.498 4.368 4.213 4.038 3.844 3.636 3.416 3.189 2.957 2.724 2.492 2.266 2.046 1.835 1.634 1.446 1.271 1.109 0.961 0.826 0.705 0.598 0.502 0.419 0.346 0.283 0.229 0.183 0.145
0.169 0.213 0.265 0.327 0.399 0.482 0.578 0.687 0.810 0.948 1.101 1.271 1.456 1.656 1.871 2.100 2.341 2.593 2.852 3.116 3.383 3.648 3.908 4.158 4.397 4.618 4.818 4.995 5.144 5.263 5.350 5.403 5.421 5.403 5.350 5.263 5.144 4.995 4.818 4.618 4.397 4.158 3.908 3.648 3.383 3.116 2.852 2.593 2.341 2.100 1.871 1.656 1.456 1.271 1.101 0.948 0.810 0.687 0.578 0.482 0.399 0.327 0.265 0.213 0.169
0.195 0.245 0.305 0.375 0.456 0.551 0.659 0.783 0.923 1.080 1.254 1.446 1.656 1.884 2.128 2.388 2.662 2.947 3.241 3.542 3.844 4.145 4.440 4.725 4.995 5.246 5.474 5.675 5.844 5.979 6.078 6.138 6.158 6.138 6.078 5.979 5.844 5.675 5.474 5.246 4.995 4.725 4.440 4.145 3.844 3.542 3.241 2.947 2.662 2.388 2.128 1.884 1.656 1.446 1.254 1.080 0.923 0.783 0.659 0.551 0.456 0.375 0.305 0.245 0.195
0.223 0.280 0.347 0.426 0.518 0.625 0.747 0.886 1.044 1.221 1.418 1.634 1.871 2.128 2.404 2.697 3.006 3.328 3.660 3.998 4.339 4.679 5.011 5.333 5.638 5.921 6.178 6.404 6.595 6.748 6.859 6.927 6.949 6.927 6.859 6.748 6.595 6.404 6.178 5.921 5.638 5.333 5.011 4.679 4.339 3.998 3.660 3.328 3.006 2.697 2.404 2.128 1.871 1.634 1.418 1.221 1.044 0.886 0.747 0.625 0.518 0.426 0.347 0.280 0.223
0.253 0.317 0.392 0.480 0.584 0.703 0.840 0.996 1.173 1.371 1.592 1.835 2.100 2.388 2.697 3.026 3.372 3.732 4.104 4.484 4.866 5.246 5.619 5.979 6.321 6.639 6.927 7.180 7.394 7.565 7.690 7.766 7.791 7.766 7.690 7.565 7.394 7.180 6.927 6.639 6.321 5.979 5.619 5.246 4.866 4.484 4.104 3.732 3.372 3.026 2.697 2.388 2.100 1.835 1.592 1.371 1.173 0.996 0.840 0.703 0.584 0.480 0.392 0.317 0.253
0.285 0.356 0.439 0.538 0.653 0.786 0.938 1.112 1.309 1.530 1.775 2.046 2.341 2.662 3.006 3.372 3.757 4.158 4.573 4.995 5.421 5.844 6.259 6.660 7.041 7.394 7.715 7.997 8.236 8.426 8.565 8.649 8.678 8.649 8.565 8.426 8.236 7.997 7.715 7.394 7.041 6.660 6.259 5.844 5.421 4.995 4.573 4.158 3.757 3.372 3.006 2.662 2.341 2.046 1.775 1.530 1.309 1.112 0.938 0.786 0.653 0.538 0.439 0.356 0.285
0.318 0.396 0.489 0.598 0.725 0.872 1.041 1.233 1.451 1.695 1.966 2.266 2.593 2.947 3.328 3.732 4.158 4.603 5.061 5.528 5.999 6.467 6.927 7.370 7.791 8.182 8.537 8.849 9.113 9.324 9.477 9.570 9.602 9.570 9.477 9.324 9.113 8.849 8.537 8.182 7.791 7.370 6.927 6.467 5.999 5.528 5.061 4.603 4.158 3.732 3.328 2.947 2.593 2.266 1.966 1.695 1.451 1.233 1.041 0.872 0.725 0.598 0.489 0.396 0.318
0.352 0.438 0.540 0.659 0.799 0.961 1.146 1.358 1.597 1.865 2.164 2.492 2.852 3.241 3.660 4.104 4.573 5.061 5.564 6.078 6.595 7.110 7.615 8.102 8.565 8.995 9.385 9.728 10.018 10.249 10.418 10.520 10.555 10.520 10.418 10.249 10.018 9.728 9.385 8.995 8.565 8.102 7.615 7.110 6.595 6.078 5.564 5.061 4.573 4.104 3.660 3.241 2.852 2.492 2.164 1.865 1.597 1.358 1.146 0.961 0.799 0.659 0.540 0.438 0.352
0.387 0.480 0.592 0.722 0.875 1.051 1.254 1.485 1.746 2.039 2.365 2.724 3.116 3.542 3.998 4.484 4.995 5.528 6.078 6.639 7.204 7.766 8.317 8.849 9.354 9.824 10.249 10.624 10.940 11.193 11.377 11.489 11.527 11.489 11.377 11.193 10.940 10.624 10.249 9.824 9.354 8.849 8.317 7.766 7.204 6.639 6.078 5.528 4.995 4.484 3.998 3.542 3.116 2.724 2.365 2.039 1.746 1.485 1.254 1.051 0.875 0.722 0.592 0.480 0.387
0.422 0.523 0.644 0.786 0.951 1.142 1.362 1.613 1.896 2.214 2.567 2.957 3.383 3.844 4.339 4.866 5.421 5.999 6.595 7.204 7.817 8.426 9.024 9.602 10.149 10.659 11.120 11.527 11.870 12.144 12.344 12.465 12.506 12.465 12.344 12.144 11.870 11.527 11.120 10.659 10.149 9.602 9.024 8.426 7.817 7.204 6.595 5.999 5.421 4.866 4.339 3.844 3.383 2.957 2.567 2.214 1.896 1.613 1.362 1.142 0.951 0.786 0.644 0.523 0.422
0.456 0.566 0.696 0.849 1.027 1.233 1.470 1.740 2.046 2.388 2.769 3.189 3.648 4.145 4.679 5.246 5.844 6.467 7.110 7.766 8.426 9.083 9.728 10.350 10.940 11.489 11.987 12.425 12.795 13.090 13.306 13.437 13.480 13.437 13.306 13.090 12.795 12.425 11.987 11.489 10.940 10.350 9.728 9.083 8.426 7.766 7.110 6.467 5.844 5.246 4.679 4.145 3.648 3.189 2.769 2.388 2.046 1.740 1.470 1.233 1.027 0.849 0.696 0.566 0.456
0.490 0.608 0.747 0.911 1.101 1.322 1.576 1.865 2.192 2.559 2.967 3.416 3.908 4.440 5.011 5.619 6.259 6.927 7.615 8.317 9.024 9.728 10.418 11.084 11.716 12.304 12.837 13.306 13.702 14.018 14.249 14.389 14.436 14.389 14.249 14.018 13.702 13.306 12.837 12.304 11.716 11.084 10.418 9.728 9.024 8.317 7.615 6.927 6.259 5.619 5.011 4.440 3.908 3.416 2.967 2.559 2.192 1.865 1.576 1.322 1.101 0.911 0.747 0.608 0.490
0.523 0.648 0.796 0.970 1.173 1.408 1.678 1.986 2.334 2.724 3.157 3.636 4.158 4.725 5.333 5.979 6.660 7.370 8.102 8.849 9.602 10.350 11.084 11.793 12.465 13.090 13.657 14.156 14.578 14.914 15.160 15.309 15.359 15.309 15.160 14.914 14.578 14.156 13.657 13.090 12.465 11.793 11.084 10.350 9.602 8.849 8.102 7.370 6.660 5.979 5.333 4.725 4.158 3.636 3.157 2.724 2.334 1.986 1.678 1.408 1.173 0.970 0.796 0.648 0.523
0.555 0.687 0.843 1.027 1.241 1.490 1.775 2.100 2.468 2.880 3.339 3.844 4.397 4.995 5.638 6.321 7.041 7.791 8.565 9.354 10.149 10.940 11.716 12.465 13.176 13.837 14.436 14.963 15.409 15.764 16.024 16.181 16.234 16.181 16.024 15.764 15.409 14.963 14.436 13.837 13.176 12.465 11.716 10.940 10.149 9.354 8.565 7.791 7.041 6.321 5.638 4.995 4.397 3.844 3.339 2.880 2.468 2.100 1.775 1.490 1.241 1.027 0.843 0.687 0.555
0.584 0.722 0.886 1.080 1.305 1.566 1.865 2.207 2.593 3.026 3.507 4.038 4.618 5.246 5.921 6.639 7.394 8.182 8.995 9.824 10.659 11.489 12.304 13.090 13.837 14.530 15.160 15.713 16.181 16.555 16.827 16.992 17.048 16.992 16.827 16.555 16.181 15.713 15.160 14.530 13.837 13.090 12.304 11.489 10.659 9.824 8.995 8.182 7.394 6.639 5.921 5.246 4.618 4.038 3.507 3.026 2.593 2.207 1.865 1.566 1.305 1.080 0.886 0.722 0.584
0.610 0.755 0.926 1.127 1.362 1.634 1.947 2.303 2.706 3.157 3.660 4.213 4.818 5.474 6.178 6.927 7.715 8.537 9.385 10.249 11.120 11.987 12.837 13.657 14.436 15.160 15.816 16.393 16.882 17.271 17.555 17.728 17.786 17.728 17.555 17.271 16.882 16.393 15.816 15.160 14.436 13.657 12.837 11.987 11.120 10.249 9.385 8.537 7.715 6.927 6.178 5.474 4.818 4.213 3.660 3.157 2.706 2.303 1.947 1.634 1.362 1.127 0.926 0.755 0.610
0.633 0.783 0.961 1.169 1.413 1.695 2.019 2.388 2.806 3.274 3.794 4.368 4.995 5.675 6.404 7.180 7.997 8.849 9.728 10.624 11.527 12.425 13.306 14.156 14.963 15.713 16.393 16.992 17.498 17.902 18.196 18.375 18.435 18.375 18.196 17.902 17.498 16.992 16.393 15.713 14.963 14.156 13.306 12.425 11.527 10.624 9.728 8.849 7.997 7.180 6.404 5.675 4.995 4.368 3.794 3.274 2.806 2.388 2.019 1.695 1.413 1.169 0.961 0.783 0.633
0.653 0.807 0.990 1.205 1.456 1.746 2.080 2.460 2.890 3.372 3.908 4.498 5.144 5.844 6.595 7.394 8.236 9.113 10.018 10.940 11.870 12.795 13.702 14.578 15.409 16.181 16.882 17.498 18.019 18.435 18.738 18.922 18.984 18.922 18.738 18.435 18.019 17.498 16.882 16.181 15.409 14.578 13.702 12.795 11.870 10.940 10.018 9.113 8.236 7.394 6.595 5.844 5.144 4.498 3.908 3.372 2.890 2.460 2.080 1.746 1.456 1.205 0.990 0.807 0.653
0.668 0.826 1.013 1.233 1.490 1.787 2.128 2.517 2.957 3.450 3.998 4.603 5.263 5.979 6.748 7.565 8.426 9.324 10.249 11.193 12.144 13.090 14.018 14.914 15.764 16.555 17.271 17.902 18.435 18.860 19.170 19.359 19.422 19.359 19.170 18.860 18.435 17.902 17.271 16.555 15.764 14.914 14.018 13.090 12.144 11.193 10.249 9.324 8.426 7.565 6.748 5.979 5.263 4.603 3.998 3.450 2.957 2.517 2.128 1.787 1.490 1.233 1.013 0.826 0.668
0.680 0.840 1.030 1.254 1.515 1.817 2.164 2.559 3.006 3.507 4.064 4.679 5.350 6.078 6.859 7.690 8.565 9.477 10.418 11.377 12.344 13.306 14.249 15.160 16.024 16.827 17.555 18.196 18.738 19.170 19.485 19.677 19.741 19.677 19.485 19.170 18.738 18.196 17.555 16.827 16.024 15.160 14.249 13.306 12.344 11.377 10.418 9.477 8.565 7.690 6.859 6.078 5.350 4.679 4.064 3.507 3.006 2.559 2.164 1.817 1.515 1.254 1.030 0.840 0.680
0.687 0.849 1.041 1.266 1.530 1.835 2.185 2.584 3.036 3.542 4.104 4.725 5.403 6.138 6.927 7.766 8.649 9.570 10.520 11.489 12.465 13.437 14.389 15.309 16.181 16.992 17.728 18.375 18.922 19.359 19.677 19.870 19.935 19.870 19.677 19.359 18.922 18.375 17.728 16.992 16.181 15.309 14.389 13.437 12.465 11.489 10.520 9.570 8.649 7.766 6.927 6.138 5.403 4.725 4.104 3.542 3.036 2.584 2.185 1.835 1.530 1.266 1.041 0.849 0.687
0.689 0.852 1.044 1.271 1.535 1.841 2.192 2.593 3.046 3.553 4.118 4.740 5.421 6.158 6.949 7.791 8.678 9.602 10.555 11.527 12.506 13.480 14.436 15.359 16.234 17.048 17.786 18.435 18.984 19.422 19.741 19.935 20.000 19.935 19.741 19.422 18.984 18.435 17.786 17.048 16.234 15.359 14.436 13.480 12.506 11.527 10.555 9.602 8.678 7.791 6.949 6.158 5.421 4.740 4.118 3.553 3.046 2.593 2.192 1.841 1.535 1.271 1.044 0.852 0.689
0.687 0.849 1.041 1.266 1.530 1.835 2.185 2.584 3.036 3.542 4.104 4.725 5.403 6.138 6.927 7.766 8.649 9.570 10.520 11.489 12.465 13.437 14.389 15.309 16.181 16.992 17.728 18.375 18.922 19.359 19.677 19.870 19.935 19.870 19.677 19.359 18.922 18.375 17.728 16.992 16.181 15.309 14.389 13.437 12.465 11.489 10.520 9.570 8.649 7.766 6.927 6.138 5.403 4.725 4.104 3.542 3.036 2.584 2.185 1.835 1.530 1.266 1.041 0.849 0.687
0.680 0.840 1.030 1.254 1.515 1.817 2.164 2.559 3.006 3.507 4.064 4.679 5.350 6.078 6.859 7.690 8.565 9.477 10.418 11.377 12.344 13.306 14.249 15.160 16.024 16.827 17.555 18.196 18.738 19.170 19.485 19.677 19.741 19.677 19.485 19.170 18.738 18.196 17.555 16.827 16.024 15.160 14.249 13.306 12.344 11.377 10.418 9.477 8.565 7.690 6.859 6.078 5.350 4.679 4.064 3.507 3.006 2.559 2.164 1.817 1.515 1.254 1.030 0.840 0.680
0.668 0.826 1.013 1.233 1.490 1.787 2.128 2.517 2.957 3.450 3.998 4.603 5.263 5.979 6.748 7.565 8.426 9.324 10.249 11.193 12.144 13.090 14.018 14.914 15.764 16.555 17.271 17.902 18.435 18.860 19.170 19.359 19.422 19.359 19.170 18.860 18.435 17.902 17.271 16.555 15.764 14.914 14.018 13.090 12.144 11.193 10.249 9.324 8.426 7.565 6.748 5.979 5.263 4.603 3.998 3.450 2.957 2.517 2.128 1.787 1.490 1.233 1.013 0.826 0.668
0.653 0.807 0.990 1.205 1.456 1.746 2.080 2.460 2.890 3.372 3.908 4.498 5.144 5.844 6.595 7.394 8.236 9.113 10.018 10.940 11.870 12.795 13.702 14.578 15.409 16.181 16.882 17.498 18.019 18.435 18.738 18.922 18.984 18.922 18.738 18.435 18.019 17.498 16.882 16.181 15.409 14.578 13.702 12.795 11.870 10.940 10.018 9.113 8.236 7.394 6.595 5.844 5.144 4.498 3.908 3.372 2.890 2.460 2.080 1.746 1.456 1.205 0.990 0.807 0.653
0.633 0.783 0.961 1.169 1.413 1.695 2.019 2.388 2.806 3.274 3.794 4.368 4.995 5.675 6.404 7.180 7.997 8.849 9.728 10.624 11.527 12.425 13.306 14.156 14.963 15.713 16.393 16.992 17.498 17.902 18.196 18.375 18.435 18.375 18.196 17.902 17.498 16.992 16.393 15.713 14.963 14.156 13.306 12.425 11.527 10.624 9.728 8.849 7.997 7.180 6.404 5.675 4.995 4.368 3.794 3.274 2.806 2.388 2.019 1.695 1.413 1.169 0.961 0.783 0.633
0.610 0.755 0.926 1.127 1.362 1.634 1.947 2.303 2.706 3.157 3.660 4.213 4.818 5.474 6.178 6.927 7.715 8.537 9.385 10.249 11.120 11.987 12.837 13.657 14.436 15.160 15.816 16.393 16.882 17.271 17.555 17.728 17.786 17.728 17.555 17.271 16.882 16.393 15.816 15.160 14.436 13.657 12.837 11.987 11.120 10.249 9.385 8.537 7.715 6.927 6.178 5.474 4.818 4.213 3.660 3.157 2.706 2.303 1.947 1.634 1.362 1.127 0.926 0.755 0.610
0.584 0.722 0.886 1.080 1.305 1.566 1.865 2.207 2.593 3.026 3.507 4.038 4.618 5.246 5.921 6.639 7.394 8.182 8.995 9.824 10.659 11.489 12.304 13.090 13.837 14.530 15.160 15.713 16.181 16.555 16.827 16.992 17.048 16.992 16.827 16.555 16.181 15.713 15.160 14.530 13.837 13.090 12.304 11.489 10.659 9.824 8.995 8.182 7.394 6.639 5.921 5.246 4.618 4.038 3.507 3.026 2.593 2.207 1.865 1.566 1.305 1.080 0.886 0.722 0.584
0.555 0.687 0.843 1.027 1.241 1.490 1.775 2.100 2.468 2.880 3.339 3.844 4.397 4.995 5.638 6.321 7.041 7.791 8.565 9.354 10.149 10.940 11.716 12.465 13.176 13.837 14.436 14.963 15.409 15.764 16.024 16.181 16.234 16.181 16.024 15.764 15.409 14.963 14.436 13.837 13.176 12.465 11.716 10.940 10.149 9.354 8.565 7.791 7.041 6.321 5.638 4.995 4.397 3.844 3.339 2.880 2.468 2.100 1.775 1.490 1.241 1.027 0.843 0.687 0.555
0.523 0.648 0.796 0.970 1.173 1.408 1.678 1.986 2.334 2.724 3.157 3.636 4.158 4.725 5.333 5.979 6.660 7.370 8.102 8.849 9.602 10.350 11.084 11.793 12.465 13.090 13.657 14.156 14.578 14.914 15.160 15.309 15.359 15.309 15.160 14.914 14.578 14.156 13.657 13.090 12.465 11.793 11.084 10.350 9.602 8.849 8.102 7.370 6.660 5.979 5.333 4.725 4.158 3.636 3.157 2.724 2.334 1.986 1.678 1.408 1.173 0.970 0.796 0.648 0.523
0.490 0.608 0.747 0.911 1.101 1.322 1.576 1.865 2.192 2.559 2.967 3.416 3.908 4.440 5.011 5.619 6.259 6.927 7.615 8.317 9.024 9.728 10.418 11.084 11.716 12.304 12.837 13.306 13.702 14.018 14.249 14.389 14.436 14.389 14.249 14.018 13.702 13.306 12.837 12.304 11.716 11.084 10.418 9.728 9.024 8.317 7.615 6.927 6.259 5.619 5.011 4.440 3.908 3.416 2.967 2.559 2.192 1.865 1.576 1.322 1.101 0.911 0.747 0.608 0.490
0.456 0.566 0.696 0.849 1.027 1.233 1.470 1.740 2.046 2.388 2.769 3.189 3.648 4.145 4.679 5.246 5.844 6.467 7.110 7.766 8.426 9.083 9.728 10.350 10.940 11.489 11.987 12.425 12.795 13.090 13.306 13.437 13.480 13.437 13.306 13.090 12.795 12.425 11.987 11.489 10.940 10.350 9.728 9.083 8.426 7.766 7.110 6.467 5.844 5.246 4.679 4.145 3.648 3.189 2.769 2.388 2.046 1.740 1.470 1.233 1.027 0.849 0.696 0.566 0.456
0.422 0.523 0.644 0.786 0.951 1.142 1.362 1.613 1.896 2.214 2.567 2.957 3.383 3.844 4.339 4.866 5.421 5.999 6.595 7.204 7.817 8.426 9.024 9.602 10.149 10.659 11.120 11.527 11.870 12.144 12.344 12.465 12.506 12.465 12.344 12.144 11.870 11.527 11.120 10.659 10.149 9.602 9.024 8.426 7.817 7.204 6.595 5.999 5.421 4.866 4.339 3.844 3.383 2.957 2.567 2.214 1.896 1.613 1.362 1.142 0.951 0.786 0.644 0.523 0.422
0.387 0.480 0.592 0.722 0.875 1.051 1.254 1.485 1.746 2.039 2.365 2.724 3.116 3.542 3.998 4.484 4.995 5.528 6.078 6.639 7.204 7.766 8.317 8.849 9.354 9.824 10.249 10.624 10.940 11.193 11.377 11.489 11.527 11.489 11.377 11.193 10.940 10.624 10.249 9.824 9.354 8.849 8.317 7.766 7.204 6.639 6.078 5.528 4.995 4.484 3.998 3.542 3.116 2.724 2.365 2.039 1.746 1.485 1.254 1.051 0.875 0.722 0.592 0.480 0.387
0.352 0.438 0.540 0.659 0.799 0.961 1.146 1.358 1.597 1.865 2.164 2.492 2.852 3.241 3.660 4.104 4.573 5.061 5.564 6.078 6.595 7.110 7.615 8.102 8.565 8.995 9.385 9.728 10.018 10.249 10.418 10.520 10.555 10.520 10.418 10.249 10.018 9.728 9.385 8.995 8.565 8.102 7.615 7.110 6.595 6.078 5.564 5.061 4.573 4.104 3.660 3.241 2.852 2.492 2.164 1.865 1.597 1.358 1.146 0.961 0.799 0.659 0.540 0.438 0.352
0.318 0.396 0.489 0.598 0.725 0.872 1.041 1.233 1.451 1.695 1.966 2.266 2.593 2.947 3.328 3.732 4.158 4.603 5.061 5.528 5.999 6.467 6.927 7.370 7.791 8.182 8.537 8.849 9.113 9.324 9.477 9.570 9.602 9.570 9.477 9.324 9.113 8.849 8.537 8.182 7.791 7.370 6.927 6.467 5.999 5.528 5.061 4.603 4.158 3.732 3.328 2.947 2.593 2.266 1.966 1.695 1.451 1.233 1.041 0.872 0.725 0.598 0.489 0.396 0.318
0.285 0.356 0.439 0.538 0.653 0.786 0.938 1.112 1.309 1.530 1.775 2.046 2.341 2.662 3.006 3.372 3.757 4.158 4.573 4.995 5.421 5.844 6.259 6.660 7.041 7.394 7.715 7.997 8.236 8.426 8.565 8.649 8.678 8.649 8.565 8.426 8.236 7.997 7.715 7.394 7.041 6.660 6.259 5.844 5.421 4.995 4.573 4.158 3.757 3.372 3.006 2.662 2.341 2.046 1.775 1.530 1.309 1.112 0.938 0.786 0.653 0.538 0.439 0.356 0.285
0.253 0.317 0.392 0.480 0.584 0.703 0.840 0.996 1.173 1.371 1.592 1.835 2.100 2.388 2.697 3.026 3.372 3.732 4.104 4.484 4.866 5.246 5.619 5.979 6.321 6.639 6.927 7.180 7.394 7.565 7.690 7.766 7.791 7.766 7.690 7.565 7.394 7.180 6.927 6.639 6.321 5.979 5.619 5.246 4.866 4.484 4.104 3.732 3.372 3.026 2.697 2.388 2.100 1.835 1.592 1.371 1.173 0.996 0.840 0.703 0.584 0.480 0.392 0.317 0.253
0.223 0.280 0.347 0.426 0.518 0.625 0.747 0.886 1.044 1.221 1.418 1.634 1.871 2.128 2.404 2.697 3.006 3.328 3.660 3.998 4.339 4.679 5.011 5.333 5.638 5.921 6.178 6.404 6.595 6.748 6.859 6.927 6.949 6.927 6.859 6.748 6.595 6.404 6.178 5.921 5.638 5.333 5.011 4.679 4.339 3.998 3.660 3.328 3.006 2.697 2.404 2.128 1.871 1.634 1.418 1.221 1.044 0.886 0.747 0.625 0.518 0.426 0.347 0.280 0.223
0.195 0.245 0.305 0.375 0.456 0.551 0.659 0.783 0.923 1.080 1.254 1.446 1.656 1.884 2.128 2.388 2.662 2.947 3.241 3.542 3.844 4.145 4.440 4.725 4.995 5.246 5.474 5.675 5.844 5.979 6.078 6.138 6.158 6.138 6.078 5.979 5.844 5.675 5.474 5.246 4.995 4.725 4.440 4.145 3.844 3.542 3.241 2.947 2.662 2.388 2.128 1.884 1.656 1.446 1.254 1.080 0.923 0.783 0.659 0.551 0.456 0.375 0.305 0.245 0.195
0.169 0.213 0.265 0.327 0.399 0.482 0.578 0.687 0.810 0.948 1.101 1.271 1.456 1.656 1.871 2.100 2.341 2.593 2.852 3.116 3.383 3.648 3.908 4.158 4.397 4.618 4.818 4.995 5.144 5.263 5.350 5.403 5.421 5.403 5.350 5.263 5.144 4.995 4.818 4.618 4.397 4.158 3.908 3.648 3.383 3.116 2.852 2.593 2.341 2.100 1.871 1.656 1.456 1.271 1.101 0.948 0.810 0.687 0.578 0.482 0.399 0.327 0.265 0.213 0.169
0.145 0.183 0.229 0.283 0.346 0.419 0.502 0.598 0.705 0.826 0.961 1.109 1.271 1.446 1.634 1.835 2.046 2.266 2.492 2.724 2.957 3.189 3.416 3.636 3.844 4.038 4.213 4.368 4.498 4.603 4.679 4.725 4.740 4.725 4.679 4.603 4.498 4.368 4.213 4.038 3.844 3.636 3.416 3.189 2.957 2.724 2.492 2.266 2.046 1.835 1.634 1.446 1.271 1.109 0.961 0.826 0.705 0.598 0.502 0.419 0.346 0.283 0.229 0.183 0.145
0.122 0.156 0.196 0.243 0.297 0.361 0.433 0.516 0.610 0.715 0.832 0.961 1.101 1.254 1.418 1.592 1.775 1.966 2.164 2.365 2.567 2.769 2.967 3.157 3.339 3.507 3.660 3.794 3.908 3.998 4.064 4.104 4.118 4.104 4.064 3.998 3.908 3.794 3.660 3.507 3.339 3.157 2.967 2.769 2.567 2.365 2.164 1.966 1.775 1.592 1.418 1.254 1.101 0.961 0.832 0.715 0.610 0.516 0.433 0.361 0.297 0.243 0.196 0.156 0.122
0.102 0.131 0.166 0.206 0.253 0.308 0.371 0.442 0.523 0.614 0.715 0.826 0.948 1.080 1.221 1.371 1.530 1.695 1.865 2.039 2.214 2.388 2.559 2.724 2.880 3.026 3.157 3.274 3.372 3.450 3.507 3.542 3.553 3.542 3.507 3.450 3.372 3.274 3.157 3.026 2.880 2.724 2.559 2.388 2.214 2.039 1.865 1.695 1.530 1.371 1.221 1.080 0.948 0.826 0.715 0.614 0.523 0.442 0.371 0.308 0.253 0.206 0.166 0.131 0.102
0.084 0.109 0.139 0.173 0.214 0.261 0.315 0.376 0.445 0.523 0.610 0.705 0.810 0.923 1.044 1.173 1.309 1.451 1.597 1.746 1.896 2.046 2.192 2.334 2.468 2.593 2.706 2.806 2.890 2.957 3.006 3.036 3.046 3.036 3.006 2.957 2.890 2.806 2.706 2.593 2.468 2.334 2.192 2.046 1.896 1.746 1.597 1.451 1.309 1.173 1.044 0.923 0.810 0.705 0.610 0.523 0.445 0.376 0.315 0.261 0.214 0.173 0.139 0.109 0.084
0.068 0.089 0.114 0.144 0.179 0.219 0.264 0.317 0.376 0.442 0.516 0.598 0.687 0.783 0.886 0.996 1.112 1.233 1.358 1.485 1.613 1.740 1.865 1.986 2.100 2.207 2.303 2.388 2.460 2.517 2.559 2.584 2.593 2.584 2.559 2.517 2.460 2.388 2.303 2.207 2.100 1.986 1.865 1.740 1.613 1.485 1.358 1.233 1.112 0.996 0.886 0.783 0.687 0.598 0.516 0.442 0.376 0.317 0.264 0.219 0.179 0.144 0.114 0.089 0.068
0.054 0.072 0.093 0.118 0.147 0.181 0.220 0.264 0.315 0.371 0.433 0.502 0.578 0.659 0.747 0.840 0.938 1.041 1.146 1.254 1.362 1.470 1.576 1.678 1.775 1.865 1.947 2.019 2.080 2.128 2.164 2.185 2.192 2.185 2.164 2.128 2.080 2.019 1.947 1.865 1.775 1.678 1.576 1.470 1.362 1.254 1.146 1.041 0.938 0.840 0.747 0.659 0.578 0.502 0.433 0.371 0.315 0.264 0.220 0.181 0.147 0.118 0.093 0.072 0.054
0.041 0.056 0.074 0.095 0.120 0.148 0.181 0.219 0.261 0.308 0.361 0.419 0.482 0.551 0.625 0.703 0.786 0.872 0.961 1.051 1.142 1.233 1.322 1.408 1.490 1.566 1.634 1.695 1.746 1.787 1.817 1.835 1.841 1.835 1.817 1.787 1.746 1.695 1.634 1.566 1.490 1.408 1.322 1.233 1.142 1.051 0.961 0.872 0.786 0.703 0.625 0.551 0.482 0.419 0.361 0.308 0.261 0.219 0.181 0.148 0.120 0.095 0.074 0.056 0.041
0.030 0.043 0.058 0.076 0.096 0.120 0.147 0.179 0.214 0.253 0.297 0.346 0.399 0.456 0.518 0.584 0.653 0.725 0.799 0.875 0.951 1.027 1.101 1.173 1.241 1.305 1.362 1.413 1.456 1.490 1.515 1.530 1.535 1.530 1.515 1.490 1.456 1.413 1.362 1.305 1.241 1.173 1.101 1.027 0.951 0.875 0.799 0.725 0.653 0.584 0.518 0.456 0.399 0.346 0.297 0.253 0.214 0.179 0.147 0.120 0.096 0.076 0.058 0.043 0.030
0.021 0.031 0.044 0.058 0.076 0.095 0.118 0.144 0.173 0.206 0.243 0.283 0.327 0.375 0.426 0.480 0.538 0.598 0.659 0.722 0.786 0.849 0.911 0.970 1.027 1.080 1.127 1.169 1.205 1.233 1.254 1.266 1.271 1.266 1.254 1.233 1.205 1.169 1.127 1.080 1.027 0.970 0.911 0.849 0.786 0.722 0.659 0.598 0.538 0.480 0.426 0.375 0.327 0.283 0.243 0.206 0.173 0.144 0.118 0.095 0.076 0.058 0.044 0.031 0.021
0.013 0.021 0.032 0.044 0.058 0.074 0.093 0.114 0.139 0.166 0.196 0.229 0.265 0.305 0.347 0.392 0.439 0.489 0.540 0.592 0.644 0.696 0.747 0.796 0.843 0.886 0.926 0.961 0.990 1.013 1.030 1.041 1.044 1.041 1.030 1.013 0.990 0.961 0.926 0.886 0.843 0.796 0.747 0.696 0.644 0.592 0.540 0.489 0.439 0.392 0.347 0.305 0.265 0.229 0.196 0.166 0.139 0.114 0.093 0.074 0.058 0.044 0.032 0.021 0.013
0.006 0.013 0.021 0.031 0.043 0.056 0.072 0.089 0.109 0.131 0.156 0.183 0.213 0.245 0.280 0.317 0.356 0.396 0.438 0.480 0.523 0.566 0.608 0.648 0.687 0.722 0.755 0.783 0.807 0.826 0.840 0.849 0.852 0.849 0.840 0.826 0.807 0.783 0.755 0.722 0.687 0.648 0.608 0.566 0.523 0.480 0.438 0.396 0.356 0.317 0.280 0.245 0.213 0.183 0.156 0.131 0.109 0.089 0.072 0.056 0.043 0.031 0.021 0.013 0.006
0.000 0.006 0.013 0.021 0.030 0.041 0.054 0.068 0.084 0.102 0.122 0.145 0.169 0.195 0.223 0.253 0.285 0.318 0.352 0.387 0.422 0.456 0.490 0.523 0.555 0.584 0.610 0.633 0.653 0.668 0.680 0.687 0.689 0.687 0.680 0.668 0.653 0.633 0.610 0.584 0.555 0.523 0.490 0.456 0.422 0.387 0.352 0.318 0.285 0.253 0.223 0.195 0.169 0.145 0.122 0.102 0.084 0.068 0.054 0.041 0.030 0.021 0.013 0.006 0.000
